(G-CODE GENERATED BY FLATCAM v8.994 - www.flatcam.org - Version Date: 2020/11/7)

(Name: Drill_PTH_Through.DRL_1_edit_cnc)
(Type: G-code from Geometry)
(Units: MM)

(Created on Monday, 11 March 2024 at 18:02)


/TOOLS DIAMETER = ДИАМЕТР ИНСТРУМЕНТА: 
/Tool: 1 -> Dia: 0.8

/FEEDRATE Z = ПОДАЧА по Z: 
/Tool = Инструмент: 1 -> Feedrate = подача: 300

/FEEDRATE RAPIDS = БЫСТРЫЕ ПОДАЧИ: 
/Tool = Инструмент: 1 -> Feedrate Rapids = быстрая подача: 1500

/Z_CUT = ПРОХОДЫ по Z: 
/Tool = Инструмент: 1 -> Z_Cut: -1.7

/Tools Offset: 
/Tool: 1 -> Offset Z: 0.0

/Z_MOVE: 
/Tool: 1 -> Z_Move: 2

/Z Toolchange: 15 mm
/X,Y Toolchange: 0.0000, 0.0000 mm
/Z Start: None mm
/Z End: 0.5 mm
/X,Y End: None mm
(Steps per circle: 64)
/Steps per circle: 64
/Preprocessor Excellon: Charly4U

/X range:    6.3577 ...   75.3568  mm
/Y range:    3.9872 ...   33.2352  mm

/Скорость шпинделя: 0 RPM
G71 / измерения в мм
G90 / программирование в абсолютных координатах

F300
/Tool switching while working is not supported! = Смена инструмента в процессе работы не поддерживается!
F300
M3
G0 X19.4578 Y32.8352
G1 Z-1.7000 F300
G1 Z0
G0 Z2.0000
G0 X16.9178 Y32.8352
G1 Z-1.7000 F300
G1 Z0
G0 Z2.0000
G0 X14.3778 Y32.8352
G1 Z-1.7000 F300
G1 Z0
G0 Z2.0000
G0 X11.8377 Y32.8352
G1 Z-1.7000 F300
G1 Z0
G0 Z2.0000
G0 X9.2978 Y32.8352
G1 Z-1.7000 F300
G1 Z0
G0 Z2.0000
G0 X6.7577 Y32.8352
G1 Z-1.7000 F300
G1 Z0
G0 Z2.0000
G0 X6.7577 Y20.1352
G1 Z-1.7000 F300
G1 Z0
G0 Z2.0000
G0 X9.2978 Y20.1352
G1 Z-1.7000 F300
G1 Z0
G0 Z2.0000
G0 X11.8377 Y20.1352
G1 Z-1.7000 F300
G1 Z0
G0 Z2.0000
G0 X14.3778 Y20.1352
G1 Z-1.7000 F300
G1 Z0
G0 Z2.0000
G0 X16.9178 Y20.1352
G1 Z-1.7000 F300
G1 Z0
G0 Z2.0000
G0 X19.4578 Y20.1352
G1 Z-1.7000 F300
G1 Z0
G0 Z2.0000
G0 X21.9978 Y20.1352
G1 Z-1.7000 F300
G1 Z0
G0 Z2.0000
G0 X24.5378 Y20.1352
G1 Z-1.7000 F300
G1 Z0
G0 Z2.0000
G0 X6.7577 Y6.9273
G1 Z-1.7000 F300
G1 Z0
G0 Z2.0000
G0 X6.7577 Y4.3872
G1 Z-1.7000 F300
G1 Z0
G0 Z2.0000
G0 X15.0128 Y5.2763
G1 Z-1.7000 F300
G1 Z0
G0 Z2.0000
G0 X17.5528 Y5.2763
G1 Z-1.7000 F300
G1 Z0
G0 Z2.0000
G0 X22.6328 Y5.6573
G1 Z-1.7000 F300
G1 Z0
G0 Z2.0000
G0 X25.1728 Y5.6573
G1 Z-1.7000 F300
G1 Z0
G0 Z2.0000
G0 X39.3967 Y5.4033
G1 Z-1.7000 F300
G1 Z0
G0 Z2.0000
G0 X41.9367 Y5.4033
G1 Z-1.7000 F300
G1 Z0
G0 Z2.0000
G0 X44.4767 Y5.4033
G1 Z-1.7000 F300
G1 Z0
G0 Z2.0000
G0 X47.0167 Y5.4033
G1 Z-1.7000 F300
G1 Z0
G0 Z2.0000
G0 X49.5567 Y5.4033
G1 Z-1.7000 F300
G1 Z0
G0 Z2.0000
G0 X52.0967 Y5.4033
G1 Z-1.7000 F300
G1 Z0
G0 Z2.0000
G0 X54.6367 Y5.4033
G1 Z-1.7000 F300
G1 Z0
G0 Z2.0000
G0 X57.1767 Y5.4033
G1 Z-1.7000 F300
G1 Z0
G0 Z2.0000
G0 X59.7167 Y5.4033
G1 Z-1.7000 F300
G1 Z0
G0 Z2.0000
G0 X62.2567 Y5.4033
G1 Z-1.7000 F300
G1 Z0
G0 Z2.0000
G0 X64.7968 Y5.4033
G1 Z-1.7000 F300
G1 Z0
G0 Z2.0000
G0 X67.3368 Y5.4033
G1 Z-1.7000 F300
G1 Z0
G0 Z2.0000
G0 X69.8768 Y5.4033
G1 Z-1.7000 F300
G1 Z0
G0 Z2.0000
G0 X72.4168 Y5.4033
G1 Z-1.7000 F300
G1 Z0
G0 Z2.0000
G0 X74.9568 Y5.4033
G1 Z-1.7000 F300
G1 Z0
G0 Z2.0000
G0 X74.9567 Y30.8033
G1 Z-1.7000 F300
G1 Z0
G0 Z2.0000
G0 X72.4167 Y30.8033
G1 Z-1.7000 F300
G1 Z0
G0 Z2.0000
G0 X69.8767 Y30.8033
G1 Z-1.7000 F300
G1 Z0
G0 Z2.0000
G0 X67.3367 Y30.8033
G1 Z-1.7000 F300
G1 Z0
G0 Z2.0000
G0 X64.7967 Y30.8033
G1 Z-1.7000 F300
G1 Z0
G0 Z2.0000
G0 X62.2567 Y30.8032
G1 Z-1.7000 F300
G1 Z0
G0 Z2.0000
G0 X59.7167 Y30.8032
G1 Z-1.7000 F300
G1 Z0
G0 Z2.0000
G0 X57.1767 Y30.8032
G1 Z-1.7000 F300
G1 Z0
G0 Z2.0000
G0 X54.6368 Y30.8032
G1 Z-1.7000 F300
G1 Z0
G0 Z2.0000
G0 X52.0967 Y30.8032
G1 Z-1.7000 F300
G1 Z0
G0 Z2.0000
G0 X49.5567 Y30.8032
G1 Z-1.7000 F300
G1 Z0
G0 Z2.0000
G0 X47.0167 Y30.8032
G1 Z-1.7000 F300
G1 Z0
G0 Z2.0000
G0 X44.4767 Y30.8032
G1 Z-1.7000 F300
G1 Z0
G0 Z2.0000
G0 X41.9367 Y30.8032
G1 Z-1.7000 F300
G1 Z0
G0 Z2.0000
G0 X39.3967 Y30.8032
G1 Z-1.7000 F300
G1 Z0
G0 Z2.0000
G0 X24.5378 Y32.8352
G1 Z-1.7000 F300
G1 Z0
G0 Z2.0000
G0 X21.9978 Y32.8352
G1 Z-1.7000 F300
G1 Z0
G0 Z2.0000
M5 / выключение шпинделя
G0 Z0.50 X0 Y0


