(G-CODE GENERATED BY FLATCAM v8.994 - www.flatcam.org - Version Date: 2020/11/7)

(Name: Gerber_TopLayer.GTL_iso_combined_cnc)
(Type: G-code from Geometry)
(Units: MM)

(Created on Monday, 11 March 2024 at 17:21)


F120
/Tool switching while working is not supported! = Смена инструмента в процессе работы не поддерживается!
M3
F120
G0 X5.8253 Y4.8387
F60
G1 Z0.0000 F60
F120
G1 X5.8019 Y4.7893
G1 X5.7978 Y4.7799
G1 X5.7669 Y4.6935
G1 X5.7638 Y4.6836
G1 X5.7399 Y4.5879
G1 X5.7258 Y4.4938
G1 X5.7247 Y4.4836
G1 X5.7200 Y4.3850
G1 X5.7250 Y4.2831
G1 X5.7399 Y4.1822
G1 X5.7629 Y4.0898
G1 X5.7658 Y4.0799
G1 X5.7991 Y3.9871
G1 X5.8428 Y3.8948
G1 X5.8952 Y3.8073
G1 X5.9560 Y3.7253
G1 X6.0246 Y3.6497
G1 X6.1002 Y3.5811
G1 X6.1822 Y3.5203
G1 X6.2637 Y3.4712
G1 X6.2727 Y3.4663
G1 X6.3620 Y3.4242
G1 X6.4581 Y3.3898
G1 X6.5571 Y3.3650
G1 X6.6580 Y3.3501
G1 X6.7600 Y3.3451
G1 X6.8619 Y3.3501
G1 X6.9628 Y3.3650
G1 X7.0618 Y3.3898
G1 X7.1579 Y3.4242
G1 X7.2502 Y3.4679
G1 X7.3377 Y3.5203
G1 X7.4197 Y3.5811
G1 X7.4953 Y3.6497
G1 X7.5639 Y3.7253
G1 X7.6247 Y3.8073
G1 X7.6738 Y3.8888
G1 X7.6787 Y3.8978
G1 X7.7208 Y3.9871
G1 X7.7530 Y4.0766
G1 X7.7570 Y4.0898
G1 X7.7785 Y4.1755
G1 X7.7811 Y4.1889
G1 X7.7949 Y4.2831
G1 X7.7999 Y4.3850
G1 X7.7949 Y4.4870
G1 X7.7811 Y4.5812
G1 X7.7785 Y4.5946
G1 X7.7570 Y4.6803
G1 X7.7530 Y4.6935
G1 X7.7208 Y4.7830
G1 X7.6771 Y4.8753
G1 X7.6247 Y4.9628
G1 X7.5681 Y5.0394
G1 X7.5594 Y5.0500
G1 X7.4953 Y5.1204
G1 X7.4197 Y5.1890
G1 X7.3434 Y5.2458
G1 X7.3319 Y5.2535
G1 X7.2502 Y5.3022
G1 X7.1579 Y5.3459
G1 X7.0684 Y5.3781
G1 X7.0552 Y5.3821
G1 X6.9695 Y5.4036
G1 X6.9595 Y5.4057
G1 X6.8619 Y5.4200
G1 X6.7668 Y5.4249
G1 X6.7531 Y5.4249
G1 X6.6649 Y5.4205
G1 X6.6546 Y5.4197
G1 X6.5571 Y5.4051
G1 X6.4614 Y5.3812
G1 X6.4515 Y5.3781
G1 X6.3651 Y5.3472
G1 X6.3557 Y5.3431
G1 X6.3063 Y5.3197
G1 X5.1950 Y6.4309
G1 X5.1950 Y18.0872
G1 X6.4098 Y19.3019
G1 X6.4212 Y19.2972
G1 X6.4981 Y19.2699
G1 X6.5773 Y19.2499
G1 X6.5907 Y19.2472
G1 X6.6647 Y19.2362
G1 X6.6784 Y19.2349
G1 X6.7600 Y19.2311
G1 X6.8484 Y19.2354
G1 X6.9359 Y19.2484
G1 X7.0218 Y19.2699
G1 X7.1051 Y19.2997
G1 X7.1851 Y19.3376
G1 X7.2611 Y19.3831
G1 X7.3268 Y19.4316
G1 X7.3374 Y19.4403
G1 X7.3928 Y19.4905
G1 X7.4025 Y19.5002
G1 X7.4572 Y19.5608
G1 X7.5060 Y19.6263
G1 X7.5118 Y19.6348
G1 X7.5554 Y19.7079
G1 X7.5933 Y19.7879
G1 X7.6231 Y19.8712
G1 X7.6431 Y19.9504
G1 X7.6458 Y19.9638
G1 X7.6576 Y20.0446
G1 X7.6618 Y20.1262
G1 X7.6618 Y20.1399
G1 X7.6581 Y20.2146
G1 X7.6568 Y20.2283
G1 X7.6446 Y20.3090
G1 X7.6249 Y20.3883
G1 X7.6210 Y20.4014
G1 X7.5933 Y20.4782
G1 X7.5585 Y20.5521
G1 X7.5521 Y20.5642
G1 X7.5099 Y20.6342
G1 X7.4614 Y20.6999
G1 X7.4527 Y20.7105
G1 X7.3978 Y20.7709
G1 X7.3374 Y20.8258
G1 X7.3268 Y20.8345
G1 X7.2611 Y20.8830
G1 X7.1911 Y20.9252
G1 X7.1790 Y20.9316
G1 X7.1114 Y20.9636
G1 X7.1001 Y20.9684
G1 X7.1000 Y22.5322
G1 X9.8218 Y25.2540
G1 X67.2120 Y25.2540
G1 X67.2419 Y25.2553
G1 X67.2521 Y25.2564
G1 X67.2749 Y25.2599
G1 X67.2817 Y25.2612
G1 X67.3041 Y25.2668
G1 X67.3140 Y25.2696
G1 X67.3357 Y25.2774
G1 X67.3484 Y25.2826
G1 X67.3723 Y25.2941
G1 X67.4009 Y25.3113
G1 X67.4277 Y25.3311
G1 X67.4524 Y25.3536
G1 X72.0116 Y29.9127
G1 X72.0383 Y29.9001
G1 X72.0478 Y29.8960
G1 X72.1317 Y29.8660
G1 X72.1416 Y29.8631
G1 X72.2248 Y29.8424
G1 X72.2349 Y29.8405
G1 X72.3231 Y29.8276
G1 X72.4121 Y29.8230
G1 X72.4224 Y29.8229
G1 X72.5148 Y29.8276
G1 X72.6030 Y29.8405
G1 X72.6165 Y29.8432
G1 X72.7029 Y29.8650
G1 X72.7869 Y29.8948
G1 X72.7996 Y29.9001
G1 X72.8770 Y29.9368
G1 X72.8860 Y29.9417
G1 X72.9624 Y29.9877
G1 X73.0341 Y30.0407
G1 X73.0447 Y30.0494
G1 X73.1057 Y30.1046
G1 X73.1154 Y30.1143
G1 X73.1751 Y30.1805
G1 X73.2283 Y30.2520
G1 X73.2360 Y30.2634
G1 X73.2816 Y30.3399
G1 X73.3227 Y30.4267
G1 X73.3550 Y30.5171
G1 X73.3768 Y30.6035
G1 X73.3793 Y30.6157
G1 X73.3793 Y30.3222
G1 X67.3911 Y24.3339
G1 X17.7259 Y24.3338
G1 X17.6994 Y24.3323
G1 X17.6664 Y24.3274
G1 X17.6340 Y24.3193
G1 X17.6026 Y24.3081
G1 X17.5724 Y24.2938
G1 X17.5438 Y24.2766
G1 X17.5170 Y24.2567
G1 X17.4947 Y24.2367
G1 X15.6500 Y22.3920
G1 X14.7425 Y23.2993
G1 X14.7227 Y23.3170
G1 X14.6987 Y23.3349
G1 X14.6930 Y23.3387
G1 X14.6733 Y23.3506
G1 X14.6642 Y23.3556
G1 X14.6371 Y23.3683
G1 X14.6122 Y23.3773
G1 X14.5991 Y23.3813
G1 X14.5767 Y23.3869
G1 X14.5699 Y23.3882
G1 X14.5403 Y23.3925
G1 X14.5070 Y23.3941
G1 X9.8080 Y23.3941
G1 X9.7746 Y23.3925
G1 X9.7416 Y23.3876
G1 X9.7092 Y23.3795
G1 X9.6842 Y23.3707
G1 X9.6746 Y23.3669
G1 X9.6476 Y23.3540
G1 X9.6190 Y23.3368
G1 X9.5922 Y23.3170
G1 X9.5675 Y23.2945
G1 X7.7895 Y21.5165
G1 X7.7693 Y21.4944
G1 X7.7628 Y21.4864
G1 X7.7472 Y21.4650
G1 X7.7300 Y21.4364
G1 X7.7157 Y21.4062
G1 X7.7067 Y21.3813
G1 X7.7027 Y21.3682
G1 X7.6971 Y21.3458
G1 X7.6958 Y21.3390
G1 X7.6915 Y21.3094
G1 X7.6899 Y21.2760
G1 X7.6899 Y8.3359
G1 X7.2136 Y7.8597
G1 X7.1579 Y7.8859
G1 X7.0651 Y7.9192
G1 X7.0552 Y7.9221
G1 X6.9662 Y7.9444
G1 X6.9561 Y7.9462
G1 X6.8619 Y7.9600
G1 X6.7668 Y7.9649
G1 X6.7565 Y7.9650
G1 X6.6649 Y7.9605
G1 X6.6512 Y7.9592
G1 X6.5571 Y7.9451
G1 X6.4647 Y7.9221
G1 X6.4515 Y7.9181
G1 X6.3620 Y7.8859
G1 X6.2697 Y7.8422
G1 X6.1822 Y7.7898
G1 X6.1056 Y7.7332
G1 X6.0950 Y7.7245
G1 X6.0295 Y7.6652
G1 X6.0198 Y7.6555
G1 X5.9560 Y7.5848
G1 X5.8952 Y7.5028
G1 X5.8428 Y7.4153
G1 X5.8019 Y7.3293
G1 X5.7966 Y7.3166
G1 X5.7647 Y7.2269
G1 X5.7399 Y7.1279
G1 X5.7250 Y7.0270
G1 X5.7201 Y6.9319
G1 X5.7201 Y6.9182
G1 X5.7245 Y6.8300
G1 X5.7258 Y6.8163
G1 X5.7399 Y6.7222
G1 X5.7629 Y6.6298
G1 X5.7669 Y6.6166
G1 X5.7991 Y6.5271
G1 X5.8428 Y6.4348
G1 X5.8952 Y6.3473
G1 X5.9518 Y6.2707
G1 X5.9605 Y6.2601
G1 X6.0198 Y6.1946
G1 X6.0295 Y6.1849
G1 X6.1002 Y6.1211
G1 X6.1765 Y6.0643
G1 X6.1880 Y6.0566
G1 X6.2697 Y6.0079
G1 X6.3620 Y5.9642
G1 X6.4581 Y5.9298
G1 X6.5504 Y5.9065
G1 X6.5604 Y5.9044
G1 X6.6580 Y5.8901
G1 X6.7531 Y5.8852
G1 X6.7668 Y5.8852
G1 X6.8619 Y5.8901
G1 X6.9561 Y5.9039
G1 X6.9695 Y5.9065
G1 X7.0618 Y5.9298
G1 X7.1515 Y5.9617
G1 X7.1642 Y5.9670
G1 X7.2502 Y6.0079
G1 X7.3319 Y6.0566
G1 X7.3434 Y6.0643
G1 X7.4197 Y6.1211
G1 X7.4904 Y6.1849
G1 X7.5001 Y6.1946
G1 X7.5639 Y6.2653
G1 X7.6207 Y6.3416
G1 X7.6284 Y6.3531
G1 X7.6771 Y6.4348
G1 X7.7208 Y6.5271
G1 X7.7530 Y6.6166
G1 X7.7570 Y6.6298
G1 X7.7800 Y6.7222
G1 X7.7946 Y6.8197
G1 X7.7954 Y6.8300
G1 X7.7998 Y6.9182
G1 X7.7998 Y6.9319
G1 X7.7949 Y7.0270
G1 X7.7806 Y7.1246
G1 X7.7785 Y7.1346
G1 X7.7570 Y7.2203
G1 X7.7541 Y7.2302
G1 X7.7208 Y7.3230
G1 X7.6946 Y7.3787
G1 X8.2704 Y7.9546
G1 X8.2884 Y7.9741
G1 X8.2950 Y7.9820
G1 X8.3127 Y8.0061
G1 X8.3282 Y8.0317
G1 X8.3330 Y8.0409
G1 X8.3442 Y8.0649
G1 X8.3532 Y8.0898
G1 X8.3564 Y8.0996
G1 X8.3635 Y8.1287
G1 X8.3684 Y8.1617
G1 X8.3700 Y8.1950
G1 X8.3700 Y21.1352
G1 X9.9488 Y22.7140
G1 X14.3661 Y22.7140
G1 X15.3099 Y21.7702
G1 X15.3099 Y18.7360
G1 X15.3115 Y18.7027
G1 X15.3164 Y18.6697
G1 X15.3245 Y18.6373
G1 X15.3345 Y18.6091
G1 X15.3385 Y18.5996
G1 X15.3500 Y18.5757
G1 X15.3672 Y18.5471
G1 X15.3870 Y18.5203
G1 X15.4095 Y18.4956
G1 X17.0605 Y16.8446
G1 X17.0852 Y16.8221
G1 X17.1120 Y16.8023
G1 X17.1346 Y16.7885
G1 X17.1468 Y16.7820
G1 X17.1676 Y16.7722
G1 X17.1772 Y16.7684
G1 X17.2022 Y16.7596
G1 X17.2346 Y16.7515
G1 X17.2676 Y16.7466
G1 X17.2975 Y16.7450
G1 X21.4920 Y16.7450
G1 X21.5219 Y16.7463
G1 X21.5321 Y16.7474
G1 X21.5583 Y16.7515
G1 X21.5907 Y16.7596
G1 X21.6221 Y16.7708
G1 X21.6461 Y16.7820
G1 X21.6583 Y16.7885
G1 X21.6780 Y16.8004
G1 X21.6837 Y16.8042
G1 X21.7077 Y16.8221
G1 X21.7300 Y16.8422
G1 X24.1898 Y19.3019
G1 X24.2012 Y19.2972
G1 X24.2716 Y19.2720
G1 X24.2847 Y19.2681
G1 X24.3640 Y19.2484
G1 X24.4515 Y19.2354
G1 X24.5400 Y19.2311
G1 X24.6215 Y19.2349
G1 X24.6352 Y19.2362
G1 X24.7159 Y19.2484
G1 X24.8018 Y19.2699
G1 X24.8787 Y19.2972
G1 X24.8914 Y19.3025
G1 X24.9651 Y19.3376
G1 X25.0353 Y19.3794
G1 X25.0467 Y19.3870
G1 X25.1122 Y19.4358
G1 X25.1778 Y19.4952
G1 X25.2327 Y19.5556
G1 X25.2414 Y19.5662
G1 X25.2899 Y19.6319
G1 X25.3354 Y19.7079
G1 X25.3733 Y19.7879
G1 X25.4010 Y19.8647
G1 X25.4049 Y19.8778
G1 X25.4231 Y19.9504
G1 X25.4258 Y19.9638
G1 X25.4376 Y20.0446
G1 X25.4419 Y20.1330
G1 X25.4376 Y20.2215
G1 X25.4258 Y20.3023
G1 X25.4231 Y20.3157
G1 X25.4049 Y20.3883
G1 X25.4010 Y20.4014
G1 X25.3733 Y20.4782
G1 X25.3354 Y20.5582
G1 X25.2899 Y20.6342
G1 X25.2414 Y20.6999
G1 X25.2327 Y20.7105
G1 X25.1825 Y20.7659
G1 X25.1728 Y20.7756
G1 X25.1122 Y20.8303
G1 X25.0467 Y20.8791
G1 X25.0353 Y20.8867
G1 X24.9651 Y20.9285
G1 X24.8851 Y20.9664
G1 X24.8018 Y20.9962
G1 X24.7159 Y21.0177
G1 X24.6284 Y21.0307
G1 X24.5400 Y21.0350
G1 X24.4515 Y21.0307
G1 X24.3707 Y21.0189
G1 X24.3573 Y21.0162
G1 X24.2781 Y20.9962
G1 X24.2012 Y20.9689
G1 X24.1885 Y20.9636
G1 X24.1209 Y20.9316
G1 X24.1088 Y20.9252
G1 X24.0388 Y20.8830
G1 X23.9704 Y20.8325
G1 X23.9625 Y20.8258
G1 X23.9021 Y20.7709
G1 X23.8472 Y20.7105
G1 X23.8385 Y20.6999
G1 X23.7939 Y20.6398
G1 X23.7863 Y20.6284
G1 X23.7445 Y20.5582
G1 X23.7066 Y20.4782
G1 X23.6768 Y20.3949
G1 X23.6568 Y20.3157
G1 X23.6541 Y20.3023
G1 X23.6431 Y20.2283
G1 X23.6418 Y20.2146
G1 X23.6380 Y20.1330
G1 X23.6423 Y20.0446
G1 X23.6553 Y19.9571
G1 X23.6750 Y19.8778
G1 X23.6789 Y19.8647
G1 X23.7041 Y19.7943
G1 X23.7088 Y19.7829
G1 X21.3511 Y17.4251
G1 X17.4418 Y17.4251
G1 X15.9900 Y18.8769
G1 X15.9900 Y21.7702
G1 X17.8736 Y23.6537
G1 X67.5320 Y23.6537
G1 X67.5619 Y23.6551
G1 X67.5721 Y23.6562
G1 X67.5983 Y23.6603
G1 X67.6307 Y23.6684
G1 X67.6621 Y23.6796
G1 X67.6862 Y23.6908
G1 X67.6983 Y23.6973
G1 X67.7181 Y23.7092
G1 X67.7266 Y23.7150
G1 X67.7477 Y23.7309
G1 X67.7725 Y23.7534
G1 X73.9599 Y29.9408
G1 X73.9808 Y29.9637
G1 X73.9811 Y29.9526
G1 X73.9828 Y29.9389
G1 X73.9858 Y29.9255
G1 X73.9901 Y29.9125
G1 X73.9957 Y29.8999
G1 X74.0025 Y29.8880
G1 X74.0104 Y29.8767
G1 X74.0194 Y29.8663
G1 X74.0293 Y29.8568
G1 X74.0374 Y29.8504
G1 X74.0488 Y29.8428
G1 X74.0609 Y29.8363
G1 X74.0736 Y29.8310
G1 X74.0867 Y29.8270
G1 X74.1002 Y29.8244
G1 X74.1139 Y29.8230
G1 X75.8006 Y29.8229
G1 X75.8109 Y29.8235
G1 X75.8245 Y29.8255
G1 X75.8378 Y29.8289
G1 X75.8507 Y29.8335
G1 X75.8631 Y29.8394
G1 X75.8720 Y29.8446
G1 X75.8833 Y29.8525
G1 X75.8937 Y29.8615
G1 X75.9032 Y29.8714
G1 X75.9116 Y29.8822
G1 X75.9190 Y29.8938
G1 X75.9251 Y29.9061
G1 X75.9301 Y29.9189
G1 X75.9337 Y29.9322
G1 X75.9361 Y29.9457
G1 X75.9371 Y29.9594
G1 X75.9371 Y31.6392
G1 X75.9365 Y31.6530
G1 X75.9351 Y31.6632
G1 X75.9321 Y31.6766
G1 X75.9278 Y31.6896
G1 X75.9237 Y31.6991
G1 X75.9190 Y31.7083
G1 X75.9136 Y31.7170
G1 X75.9075 Y31.7254
G1 X75.9009 Y31.7333
G1 X75.8937 Y31.7406
G1 X75.8860 Y31.7475
G1 X75.8778 Y31.7537
G1 X75.8691 Y31.7593
G1 X75.8601 Y31.7643
G1 X75.8539 Y31.7672
G1 X75.8443 Y31.7711
G1 X75.8345 Y31.7742
G1 X75.8245 Y31.7766
G1 X75.8143 Y31.7782
G1 X75.8040 Y31.7791
G1 X74.1208 Y31.7792
G1 X74.1105 Y31.7789
G1 X74.1002 Y31.7777
G1 X74.0901 Y31.7758
G1 X74.0801 Y31.7732
G1 X74.0704 Y31.7699
G1 X74.0609 Y31.7658
G1 X74.0517 Y31.7611
G1 X74.0430 Y31.7557
G1 X74.0346 Y31.7496
G1 X74.0267 Y31.7430
G1 X74.0194 Y31.7358
G1 X74.0147 Y31.7307
G1 X74.0083 Y31.7226
G1 X74.0025 Y31.7141
G1 X73.9973 Y31.7052
G1 X73.9928 Y31.6960
G1 X73.9889 Y31.6864
G1 X73.9858 Y31.6766
G1 X73.9834 Y31.6666
G1 X73.9823 Y31.6598
G1 X73.9811 Y31.6495
G1 X73.9808 Y31.6392
G1 X73.9808 Y31.1412
G1 X73.7202 Y31.1412
G1 X73.6895 Y31.1398
G1 X73.6827 Y31.1391
G1 X73.6598 Y31.1358
G1 X73.6464 Y31.1331
G1 X73.6207 Y31.1265
G1 X73.5893 Y31.1153
G1 X73.5591 Y31.1010
G1 X73.5334 Y31.0857
G1 X73.5249 Y31.0799
G1 X73.5063 Y31.0661
G1 X73.4985 Y31.0595
G1 X73.4789 Y31.0415
G1 X73.4610 Y31.0220
G1 X73.4544 Y31.0141
G1 X73.4366 Y30.9900
G1 X73.4195 Y30.9614
G1 X73.4052 Y30.9312
G1 X73.3961 Y30.9063
G1 X73.3926 Y30.8950
G1 X73.3916 Y30.9038
G1 X73.3784 Y30.9919
G1 X73.3569 Y31.0784
G1 X73.3529 Y31.0915
G1 X73.3227 Y31.1754
G1 X73.2847 Y31.2560
G1 X73.2783 Y31.2681
G1 X73.2323 Y31.3445
G1 X73.1793 Y31.4162
G1 X73.1706 Y31.4268
G1 X73.1106 Y31.4927
G1 X73.0447 Y31.5527
G1 X73.0341 Y31.5614
G1 X72.9624 Y31.6144
G1 X72.8860 Y31.6604
G1 X72.8739 Y31.6668
G1 X72.7933 Y31.7048
G1 X72.7094 Y31.7350
G1 X72.6963 Y31.7390
G1 X72.6098 Y31.7605
G1 X72.5217 Y31.7737
G1 X72.5080 Y31.7750
G1 X72.4190 Y31.7792
G1 X72.3299 Y31.7750
G1 X72.3162 Y31.7737
G1 X72.2281 Y31.7605
G1 X72.1416 Y31.7390
G1 X72.1285 Y31.7350
G1 X72.0446 Y31.7048
G1 X71.9640 Y31.6668
G1 X71.9519 Y31.6604
G1 X71.8784 Y31.6163
G1 X71.8699 Y31.6104
G1 X71.7984 Y31.5572
G1 X71.7273 Y31.4927
G1 X71.6628 Y31.4216
G1 X71.6096 Y31.3501
G1 X71.6019 Y31.3387
G1 X71.5596 Y31.2681
G1 X71.5532 Y31.2560
G1 X71.5152 Y31.1754
G1 X71.4850 Y31.0915
G1 X71.4819 Y31.0817
G1 X71.4595 Y30.9919
G1 X71.4455 Y30.8969
G1 X71.4408 Y30.8010
G1 X71.4452 Y30.7086
G1 X71.4463 Y30.6983
G1 X71.4595 Y30.6102
G1 X71.4819 Y30.5204
G1 X71.4850 Y30.5106
G1 X71.5139 Y30.4299
G1 X71.5180 Y30.4204
G1 X71.5306 Y30.3937
G1 X67.0711 Y25.9341
G1 X9.6810 Y25.9341
G1 X9.6476 Y25.9325
G1 X9.6146 Y25.9276
G1 X9.5822 Y25.9195
G1 X9.5540 Y25.9095
G1 X9.5445 Y25.9055
G1 X9.5206 Y25.8940
G1 X9.4920 Y25.8768
G1 X9.4652 Y25.8570
G1 X9.4405 Y25.8345
G1 X6.5195 Y22.9135
G1 X6.4970 Y22.8888
G1 X6.4772 Y22.8620
G1 X6.4617 Y22.8364
G1 X6.4569 Y22.8272
G1 X6.4457 Y22.8032
G1 X6.4345 Y22.7718
G1 X6.4271 Y22.7428
G1 X6.4252 Y22.7326
G1 X6.4215 Y22.7064
G1 X6.4199 Y22.6765
G1 X6.4199 Y20.9684
G1 X6.4085 Y20.9636
G1 X6.3348 Y20.9285
G1 X6.2588 Y20.8830
G1 X6.1877 Y20.8303
G1 X6.1221 Y20.7709
G1 X6.0627 Y20.7053
G1 X6.0100 Y20.6342
G1 X5.9645 Y20.5582
G1 X5.9266 Y20.4782
G1 X5.8968 Y20.3949
G1 X5.8753 Y20.3090
G1 X5.8623 Y20.2215
G1 X5.8580 Y20.1330
G1 X5.8623 Y20.0446
G1 X5.8753 Y19.9571
G1 X5.8968 Y19.8712
G1 X5.9241 Y19.7943
G1 X5.9288 Y19.7829
G1 X4.6121 Y18.4661
G1 X4.5920 Y18.4438
G1 X4.5761 Y18.4226
G1 X4.5703 Y18.4141
G1 X4.5550 Y18.3884
G1 X4.5407 Y18.3582
G1 X4.5317 Y18.3333
G1 X4.5277 Y18.3202
G1 X4.5221 Y18.2978
G1 X4.5208 Y18.2910
G1 X4.5165 Y18.2614
G1 X4.5149 Y18.2280
G1 X4.5149 Y6.2900
G1 X4.5165 Y6.2567
G1 X4.5214 Y6.2237
G1 X4.5277 Y6.1979
G1 X4.5305 Y6.1880
G1 X4.5383 Y6.1663
G1 X4.5435 Y6.1536
G1 X4.5550 Y6.1297
G1 X4.5722 Y6.1011
G1 X4.5920 Y6.0743
G1 X4.6097 Y6.0545
G1 X5.8253 Y4.8387
G0 Z0.2000
G0 X5.9357 Y4.8556
F60
G1 Z0.0000 F60
F120
G1 X5.9216 Y4.8318
G1 X5.8827 Y4.7497
G1 X5.8512 Y4.6620
G1 X5.8282 Y4.5704
G1 X5.8147 Y4.4794
G1 X5.8100 Y4.3850
G1 X5.8145 Y4.2919
G1 X5.8282 Y4.1997
G1 X5.8505 Y4.1105
G1 X5.8823 Y4.0215
G1 X5.9221 Y3.9372
G1 X5.9701 Y3.8573
G1 X6.0256 Y3.7824
G1 X6.0882 Y3.7133
G1 X6.1573 Y3.6507
G1 X6.2322 Y3.5952
G1 X6.3110 Y3.5478
G1 X6.3964 Y3.5074
G1 X6.4842 Y3.4760
G1 X6.5746 Y3.4533
G1 X6.6668 Y3.4396
G1 X6.7600 Y3.4351
G1 X6.8531 Y3.4396
G1 X6.9453 Y3.4533
G1 X7.0357 Y3.4760
G1 X7.1235 Y3.5074
G1 X7.2078 Y3.5472
G1 X7.2877 Y3.5952
G1 X7.3626 Y3.6507
G1 X7.4317 Y3.7133
G1 X7.4943 Y3.7824
G1 X7.5498 Y3.8573
G1 X7.5972 Y3.9361
G1 X7.6385 Y4.0238
G1 X7.6690 Y4.1093
G1 X7.6917 Y4.1997
G1 X7.7054 Y4.2919
G1 X7.7099 Y4.3826
G1 X7.7051 Y4.4806
G1 X7.6917 Y4.5704
G1 X7.6690 Y4.6608
G1 X7.6376 Y4.7486
G1 X7.5989 Y4.8307
G1 X7.5484 Y4.9148
G1 X7.4943 Y4.9877
G1 X7.4317 Y5.0568
G1 X7.3626 Y5.1194
G1 X7.2897 Y5.1735
G1 X7.2056 Y5.2240
G1 X7.1235 Y5.2627
G1 X7.0357 Y5.2941
G1 X6.9453 Y5.3168
G1 X6.8543 Y5.3303
G1 X6.7575 Y5.3350
G1 X6.6668 Y5.3305
G1 X6.5734 Y5.3165
G1 X6.4842 Y5.2941
G1 X6.3975 Y5.2632
G1 X6.3132 Y5.2234
G1 X6.2894 Y5.2093
G1 X5.1051 Y6.3936
G1 X5.1050 Y18.1245
G1 X6.3909 Y19.4104
G1 X6.4492 Y19.3829
G1 X6.5242 Y19.3560
G1 X6.6015 Y19.3367
G1 X6.6804 Y19.3250
G1 X6.7600 Y19.3211
G1 X6.8395 Y19.3250
G1 X6.9184 Y19.3367
G1 X6.9933 Y19.3554
G1 X7.0729 Y19.3839
G1 X7.1427 Y19.4169
G1 X7.2131 Y19.4593
G1 X7.2751 Y19.5054
G1 X7.3341 Y19.5589
G1 X7.3876 Y19.6179
G1 X7.4358 Y19.6830
G1 X7.4761 Y19.7503
G1 X7.5110 Y19.8246
G1 X7.5370 Y19.8973
G1 X7.5558 Y19.9722
G1 X7.5677 Y20.0510
G1 X7.5719 Y20.1330
G1 X7.5680 Y20.2126
G1 X7.5563 Y20.2915
G1 X7.5362 Y20.3711
G1 X7.5101 Y20.4438
G1 X7.4772 Y20.5136
G1 X7.4364 Y20.5821
G1 X7.3876 Y20.6482
G1 X7.3341 Y20.7072
G1 X7.2751 Y20.7607
G1 X7.2090 Y20.8095
G1 X7.1405 Y20.8503
G1 X7.0707 Y20.8832
G1 X7.0101 Y20.9050
G1 X7.0100 Y22.5695
G1 X9.7845 Y25.3439
G1 X67.2120 Y25.3440
G1 X67.2365 Y25.3452
G1 X67.2607 Y25.3488
G1 X67.2846 Y25.3547
G1 X67.3077 Y25.3630
G1 X67.3277 Y25.3724
G1 X67.3529 Y25.3875
G1 X67.3706 Y25.4007
G1 X67.3888 Y25.4172
G1 X71.9934 Y30.0218
G1 X72.0024 Y30.0166
G1 X72.0813 Y29.9796
G1 X72.1611 Y29.9511
G1 X72.2457 Y29.9299
G1 X72.3319 Y29.9171
G1 X72.4165 Y29.9129
G1 X72.5084 Y29.9174
G1 X72.5922 Y29.9299
G1 X72.6768 Y29.9511
G1 X72.7588 Y29.9805
G1 X72.8355 Y30.0166
G1 X72.9144 Y30.0640
G1 X72.9824 Y30.1145
G1 X73.0461 Y30.1721
G1 X73.1070 Y30.2395
G1 X73.1575 Y30.3076
G1 X73.2023 Y30.3824
G1 X73.2395 Y30.4612
G1 X73.2681 Y30.5409
G1 X73.2901 Y30.6278
G1 X73.3031 Y30.7164
G1 X73.3071 Y30.8010
G1 X73.3029 Y30.8881
G1 X73.2895 Y30.9767
G1 X73.2689 Y31.0589
G1 X73.2400 Y31.1398
G1 X73.2023 Y31.2197
G1 X73.1560 Y31.2965
G1 X73.1055 Y31.3645
G1 X73.0487 Y31.4273
G1 X72.9824 Y31.4876
G1 X72.9124 Y31.5396
G1 X72.8355 Y31.5855
G1 X72.7588 Y31.6216
G1 X72.6791 Y31.6502
G1 X72.5946 Y31.6716
G1 X72.5060 Y31.6850
G1 X72.4190 Y31.6892
G1 X72.3319 Y31.6850
G1 X72.2433 Y31.6716
G1 X72.1611 Y31.6510
G1 X72.0813 Y31.6225
G1 X72.0024 Y31.5855
G1 X71.9255 Y31.5396
G1 X71.8545 Y31.4868
G1 X71.7909 Y31.4291
G1 X71.7324 Y31.3645
G1 X71.6804 Y31.2945
G1 X71.6368 Y31.2219
G1 X71.5975 Y31.1387
G1 X71.5690 Y31.0589
G1 X71.5478 Y30.9743
G1 X71.5350 Y30.8881
G1 X71.5308 Y30.8010
G1 X71.5350 Y30.7140
G1 X71.5474 Y30.6302
G1 X71.5690 Y30.5432
G1 X71.5975 Y30.4634
G1 X71.6345 Y30.3845
G1 X71.6397 Y30.3755
G1 X67.1084 Y25.8441
G1 X9.6810 Y25.8441
G1 X9.6564 Y25.8429
G1 X9.6322 Y25.8393
G1 X9.6083 Y25.8334
G1 X9.5864 Y25.8256
G1 X9.5631 Y25.8146
G1 X9.5420 Y25.8020
G1 X9.5223 Y25.7874
G1 X9.5041 Y25.7709
G1 X6.5831 Y22.8499
G1 X6.5666 Y22.8317
G1 X6.5520 Y22.8120
G1 X6.5383 Y22.7888
G1 X6.5289 Y22.7688
G1 X6.5206 Y22.7457
G1 X6.5142 Y22.7194
G1 X6.5111 Y22.6976
G1 X6.5099 Y22.6743
G1 X6.5099 Y20.9050
G1 X6.4492 Y20.8832
G1 X6.3794 Y20.8503
G1 X6.3109 Y20.8095
G1 X6.2448 Y20.7607
G1 X6.1876 Y20.7089
G1 X6.1323 Y20.6482
G1 X6.0848 Y20.5842
G1 X6.0438 Y20.5158
G1 X6.0098 Y20.4438
G1 X5.9829 Y20.3688
G1 X5.9636 Y20.2915
G1 X5.9519 Y20.2126
G1 X5.9480 Y20.1306
G1 X5.9519 Y20.0535
G1 X5.9641 Y19.9722
G1 X5.9837 Y19.8950
G1 X6.0098 Y19.8223
G1 X6.0373 Y19.7640
G1 X4.6772 Y18.4040
G1 X4.6616 Y18.3867
G1 X4.6484 Y18.3690
G1 X4.6344 Y18.3459
G1 X4.6239 Y18.3238
G1 X4.6164 Y18.3030
G1 X4.6094 Y18.2756
G1 X4.6061 Y18.2526
G1 X4.6049 Y18.2280
G1 X4.6049 Y6.2900
G1 X4.6061 Y6.2655
G1 X4.6097 Y6.2413
G1 X4.6150 Y6.2198
G1 X4.6249 Y6.1921
G1 X4.6344 Y6.1722
G1 X4.6470 Y6.1511
G1 X4.6616 Y6.1314
G1 X4.6772 Y6.1141
G1 X5.9357 Y4.8556
G0 Z0.2000
G0 X6.3130 Y5.6948
F60
G1 Z0.0000 F60
F120
G1 X6.3717 Y5.6361
G1 X6.3893 Y5.6414
G1 X6.4432 Y5.6550
G1 X6.3991 Y5.6661
G1 X6.3797 Y5.6715
G1 X6.3606 Y5.6778
G1 X6.3130 Y5.6948
G0 Z0.2000
G0 X5.4650 Y6.7340
F60
G1 Z0.0000 F60
F120
G1 X5.4650 Y6.5428
G1 X5.5297 Y6.4781
G1 X5.5094 Y6.5352
G1 X5.5010 Y6.5642
G1 X5.4795 Y6.6498
G1 X5.4751 Y6.6695
G1 X5.4717 Y6.6893
G1 X5.4650 Y6.7340
G0 Z0.2000
G0 X7.5842 Y7.3956
F60
G1 Z0.0000 F60
F120
G1 X8.2068 Y8.0182
G1 X8.2217 Y8.0345
G1 X8.2392 Y8.0582
G1 X8.2505 Y8.0772
G1 X8.2610 Y8.0993
G1 X8.2693 Y8.1224
G1 X8.2747 Y8.1439
G1 X8.2790 Y8.1730
G1 X8.2800 Y8.1950
G1 X8.2800 Y21.1725
G1 X9.9115 Y22.8039
G1 X14.4034 Y22.8040
G1 X15.3999 Y21.8075
G1 X15.3999 Y18.7360
G1 X15.4011 Y18.7115
G1 X15.4047 Y18.6873
G1 X15.4106 Y18.6634
G1 X15.4199 Y18.6381
G1 X15.4294 Y18.6182
G1 X15.4420 Y18.5971
G1 X15.4566 Y18.5774
G1 X15.4731 Y18.5592
G1 X17.1241 Y16.9082
G1 X17.1423 Y16.8917
G1 X17.1620 Y16.8771
G1 X17.1809 Y16.8657
G1 X17.2075 Y16.8531
G1 X17.2283 Y16.8457
G1 X17.2522 Y16.8398
G1 X17.2764 Y16.8362
G1 X17.2997 Y16.8350
G1 X21.4920 Y16.8350
G1 X21.5177 Y16.8363
G1 X21.5407 Y16.8398
G1 X21.5646 Y16.8457
G1 X21.5877 Y16.8540
G1 X21.6077 Y16.8634
G1 X21.6329 Y16.8785
G1 X21.6506 Y16.8917
G1 X21.6679 Y16.9073
G1 X24.1709 Y19.4104
G1 X24.2292 Y19.3829
G1 X24.3042 Y19.3560
G1 X24.3815 Y19.3367
G1 X24.4579 Y19.3253
G1 X24.5424 Y19.3211
G1 X24.6195 Y19.3250
G1 X24.6959 Y19.3362
G1 X24.7780 Y19.3568
G1 X24.8507 Y19.3829
G1 X24.9227 Y19.4169
G1 X24.9931 Y19.4593
G1 X25.0551 Y19.5054
G1 X25.1141 Y19.5589
G1 X25.1691 Y19.6199
G1 X25.2151 Y19.6819
G1 X25.2561 Y19.7503
G1 X25.2901 Y19.8223
G1 X25.3162 Y19.8950
G1 X25.3368 Y19.9771
G1 X25.3480 Y20.0535
G1 X25.3519 Y20.1330
G1 X25.3480 Y20.2126
G1 X25.3368 Y20.2890
G1 X25.3162 Y20.3711
G1 X25.2901 Y20.4438
G1 X25.2561 Y20.5158
G1 X25.2151 Y20.5842
G1 X25.1660 Y20.6500
G1 X25.1123 Y20.7089
G1 X25.0551 Y20.7607
G1 X24.9931 Y20.8068
G1 X24.9227 Y20.8492
G1 X24.8507 Y20.8832
G1 X24.7757 Y20.9101
G1 X24.6984 Y20.9294
G1 X24.6195 Y20.9411
G1 X24.5400 Y20.9450
G1 X24.4604 Y20.9411
G1 X24.3791 Y20.9289
G1 X24.3042 Y20.9101
G1 X24.2315 Y20.8841
G1 X24.1594 Y20.8503
G1 X24.0888 Y20.8082
G1 X24.0248 Y20.7607
G1 X23.9658 Y20.7072
G1 X23.9123 Y20.6482
G1 X23.8648 Y20.5842
G1 X23.8250 Y20.5180
G1 X23.7889 Y20.4415
G1 X23.7629 Y20.3688
G1 X23.7436 Y20.2915
G1 X23.7319 Y20.2126
G1 X23.7280 Y20.1355
G1 X23.7322 Y20.0510
G1 X23.7436 Y19.9746
G1 X23.7629 Y19.8973
G1 X23.7898 Y19.8223
G1 X23.8173 Y19.7640
G1 X21.3884 Y17.3351
G1 X17.4045 Y17.3351
G1 X15.9001 Y18.8396
G1 X15.9000 Y21.8075
G1 X17.8363 Y23.7437
G1 X67.5320 Y23.7437
G1 X67.5589 Y23.7452
G1 X67.5808 Y23.7485
G1 X67.6046 Y23.7545
G1 X67.6277 Y23.7628
G1 X67.6477 Y23.7722
G1 X67.6729 Y23.7873
G1 X67.6907 Y23.8005
G1 X67.7088 Y23.8170
G1 X73.8971 Y30.0053
G1 X73.9128 Y30.0226
G1 X73.9260 Y30.0403
G1 X73.9411 Y30.0656
G1 X73.9505 Y30.0856
G1 X73.9588 Y30.1087
G1 X73.9647 Y30.1325
G1 X73.9682 Y30.1556
G1 X73.9695 Y30.1813
G1 X73.9695 Y30.5510
G1 X74.0708 Y30.5510
G1 X74.0708 Y29.9604
G1 X74.0717 Y29.9531
G1 X74.0737 Y29.9460
G1 X74.0772 Y29.9382
G1 X74.0813 Y29.9321
G1 X74.0863 Y29.9266
G1 X74.0920 Y29.9220
G1 X74.0983 Y29.9182
G1 X74.1051 Y29.9154
G1 X74.1134 Y29.9134
G1 X74.1208 Y29.9129
G1 X75.7971 Y29.9129
G1 X75.8057 Y29.9136
G1 X75.8151 Y29.9162
G1 X75.8239 Y29.9206
G1 X75.8316 Y29.9266
G1 X75.8380 Y29.9341
G1 X75.8407 Y29.9382
G1 X75.8433 Y29.9437
G1 X75.8462 Y29.9531
G1 X75.8471 Y29.9629
G1 X75.8471 Y31.6392
G1 X75.8464 Y31.6478
G1 X75.8442 Y31.6561
G1 X75.8412 Y31.6628
G1 X75.8373 Y31.6690
G1 X75.8325 Y31.6746
G1 X75.8259 Y31.6801
G1 X75.8196 Y31.6839
G1 X75.8117 Y31.6871
G1 X75.8045 Y31.6887
G1 X75.7971 Y31.6892
G1 X74.1208 Y31.6892
G1 X74.1110 Y31.6883
G1 X74.1028 Y31.6859
G1 X74.0950 Y31.6821
G1 X74.0881 Y31.6771
G1 X74.0813 Y31.6700
G1 X74.0779 Y31.6650
G1 X74.0756 Y31.6606
G1 X74.0737 Y31.6561
G1 X74.0720 Y31.6502
G1 X74.0708 Y31.6405
G1 X74.0708 Y31.0512
G1 X73.7202 Y31.0512
G1 X73.6949 Y31.0499
G1 X73.6718 Y31.0466
G1 X73.6468 Y31.0404
G1 X73.6237 Y31.0321
G1 X73.6015 Y31.0216
G1 X73.5825 Y31.0103
G1 X73.5589 Y30.9928
G1 X73.5426 Y30.9779
G1 X73.5253 Y30.9588
G1 X73.5115 Y30.9400
G1 X73.5001 Y30.9211
G1 X73.4884 Y30.8968
G1 X73.4801 Y30.8737
G1 X73.4747 Y30.8522
G1 X73.4704 Y30.8243
G1 X73.4693 Y30.8010
G1 X73.4693 Y30.2849
G1 X67.4284 Y24.2439
G1 X17.7303 Y24.2439
G1 X17.7082 Y24.2427
G1 X17.6839 Y24.2391
G1 X17.6601 Y24.2332
G1 X17.6370 Y24.2249
G1 X17.6148 Y24.2144
G1 X17.5938 Y24.2018
G1 X17.5741 Y24.1872
G1 X17.5568 Y24.1715
G1 X15.6500 Y22.2647
G1 X14.6829 Y23.2318
G1 X14.6656 Y23.2474
G1 X14.6479 Y23.2606
G1 X14.6248 Y23.2746
G1 X14.6027 Y23.2851
G1 X14.5819 Y23.2926
G1 X14.5545 Y23.2996
G1 X14.5315 Y23.3029
G1 X14.5070 Y23.3041
G1 X9.8080 Y23.3041
G1 X9.7834 Y23.3029
G1 X9.7616 Y23.2998
G1 X9.7330 Y23.2926
G1 X9.7122 Y23.2851
G1 X9.6922 Y23.2757
G1 X9.6711 Y23.2633
G1 X9.6493 Y23.2474
G1 X9.6311 Y23.2309
G1 X7.8531 Y21.4529
G1 X7.8351 Y21.4328
G1 X7.8220 Y21.4150
G1 X7.8094 Y21.3939
G1 X7.7980 Y21.3695
G1 X7.7906 Y21.3487
G1 X7.7849 Y21.3260
G1 X7.7811 Y21.3006
G1 X7.7799 Y21.2760
G1 X7.7799 Y8.2986
G1 X7.2305 Y7.7493
G1 X7.2067 Y7.7634
G1 X7.1224 Y7.8032
G1 X7.0357 Y7.8341
G1 X6.9465 Y7.8565
G1 X6.8531 Y7.8705
G1 X6.7624 Y7.8750
G1 X6.6656 Y7.8703
G1 X6.5746 Y7.8568
G1 X6.4842 Y7.8341
G1 X6.3964 Y7.8027
G1 X6.3143 Y7.7640
G1 X6.2302 Y7.7135
G1 X6.1573 Y7.6594
G1 X6.0882 Y7.5968
G1 X6.0256 Y7.5277
G1 X5.9715 Y7.4548
G1 X5.9210 Y7.3707
G1 X5.8823 Y7.2886
G1 X5.8509 Y7.2008
G1 X5.8282 Y7.1104
G1 X5.8148 Y7.0206
G1 X5.8100 Y6.9226
G1 X5.8145 Y6.8319
G1 X5.8282 Y6.7397
G1 X5.8509 Y6.6493
G1 X5.8814 Y6.5638
G1 X5.9227 Y6.4761
G1 X5.9701 Y6.3973
G1 X6.0256 Y6.3224
G1 X6.0882 Y6.2533
G1 X6.1573 Y6.1907
G1 X6.2322 Y6.1352
G1 X6.3121 Y6.0872
G1 X6.3964 Y6.0474
G1 X6.4842 Y6.0160
G1 X6.5746 Y5.9933
G1 X6.6668 Y5.9796
G1 X6.7600 Y5.9751
G1 X6.8531 Y5.9796
G1 X6.9453 Y5.9933
G1 X7.0357 Y6.0160
G1 X7.1235 Y6.0474
G1 X7.2089 Y6.0878
G1 X7.2877 Y6.1352
G1 X7.3626 Y6.1907
G1 X7.4317 Y6.2533
G1 X7.4943 Y6.3224
G1 X7.5498 Y6.3973
G1 X7.5978 Y6.4772
G1 X7.6376 Y6.5615
G1 X7.6694 Y6.6505
G1 X7.6917 Y6.7397
G1 X7.7054 Y6.8319
G1 X7.7099 Y6.9250
G1 X7.7052 Y7.0194
G1 X7.6917 Y7.1104
G1 X7.6687 Y7.2020
G1 X7.6372 Y7.2897
G1 X7.5983 Y7.3718
G1 X7.5842 Y7.3956
G0 Z0.2000
G0 X16.2452 Y4.8271
F60
G1 Z0.0000 F60
F120
G1 X16.3039 Y4.8858
G1 X16.2986 Y4.9034
G1 X16.2850 Y4.9573
G1 X16.2739 Y4.9132
G1 X16.2685 Y4.8938
G1 X16.2622 Y4.8747
G1 X16.2452 Y4.8271
G0 Z0.2000
G0 X15.0399 Y19.1646
F60
G1 Z0.0000 F60
F120
G1 X15.0226 Y19.1531
G1 X14.9900 Y19.1334
G1 X14.9900 Y14.1628
G1 X22.2467 Y6.9061
G1 X22.2741 Y6.9140
G1 X22.3597 Y6.9355
G1 X22.3794 Y6.9399
G1 X22.3992 Y6.9433
G1 X22.4866 Y6.9563
G1 X22.5065 Y6.9587
G1 X22.5266 Y6.9602
G1 X22.6148 Y6.9646
G1 X22.6350 Y6.9650
G1 X22.6551 Y6.9646
G1 X22.7433 Y6.9602
G1 X22.7634 Y6.9587
G1 X22.7833 Y6.9563
G1 X22.8707 Y6.9433
G1 X22.8905 Y6.9399
G1 X22.9102 Y6.9355
G1 X22.9958 Y6.9140
G1 X23.0152 Y6.9086
G1 X23.0343 Y6.9023
G1 X23.1175 Y6.8726
G1 X23.1363 Y6.8653
G1 X23.1547 Y6.8572
G1 X23.2345 Y6.8194
G1 X23.2613 Y6.8055
G1 X23.3457 Y6.7550
G1 X23.3627 Y6.7443
G1 X23.3792 Y6.7327
G1 X23.4501 Y6.6801
G1 X23.4660 Y6.6677
G1 X23.4812 Y6.6545
G1 X23.5467 Y6.5952
G1 X23.5613 Y6.5814
G1 X23.5751 Y6.5668
G1 X23.6344 Y6.5013
G1 X23.6539 Y6.4782
G1 X23.7126 Y6.3993
G1 X23.7242 Y6.3828
G1 X23.7349 Y6.3658
G1 X23.7803 Y6.2901
G1 X23.7949 Y6.2636
G1 X23.8371 Y6.1748
G1 X23.8490 Y6.1470
G1 X23.8855 Y6.0449
G1 X23.8913 Y6.0257
G1 X23.9050 Y5.9718
G1 X23.9186 Y6.0257
G1 X23.9244 Y6.0449
G1 X23.9609 Y6.1470
G1 X23.9728 Y6.1748
G1 X24.0150 Y6.2636
G1 X24.0296 Y6.2901
G1 X24.0750 Y6.3658
G1 X24.0857 Y6.3828
G1 X24.0973 Y6.3993
G1 X24.1560 Y6.4782
G1 X24.1755 Y6.5013
G1 X24.2348 Y6.5668
G1 X24.2486 Y6.5814
G1 X24.2632 Y6.5952
G1 X24.3287 Y6.6545
G1 X24.3439 Y6.6677
G1 X24.3598 Y6.6801
G1 X24.4307 Y6.7327
G1 X24.4472 Y6.7443
G1 X24.4642 Y6.7550
G1 X24.5486 Y6.8055
G1 X24.5754 Y6.8194
G1 X24.6552 Y6.8572
G1 X24.6736 Y6.8653
G1 X24.6924 Y6.8726
G1 X24.7756 Y6.9023
G1 X24.7947 Y6.9086
G1 X24.8141 Y6.9140
G1 X24.8997 Y6.9355
G1 X24.9194 Y6.9399
G1 X24.9392 Y6.9433
G1 X25.0266 Y6.9563
G1 X25.0465 Y6.9587
G1 X25.0666 Y6.9602
G1 X25.1548 Y6.9646
G1 X25.1750 Y6.9650
G1 X25.1951 Y6.9646
G1 X25.2833 Y6.9602
G1 X25.3034 Y6.9587
G1 X25.3233 Y6.9563
G1 X25.4107 Y6.9433
G1 X25.4305 Y6.9399
G1 X25.4502 Y6.9355
G1 X25.5358 Y6.9140
G1 X25.5632 Y6.9061
G1 X26.5969 Y7.9398
G1 X26.5969 Y20.0073
G1 X25.3032 Y21.3010
G1 X24.6335 Y21.3010
G1 X24.6548 Y21.2994
G1 X24.6748 Y21.2969
G1 X24.7488 Y21.2860
G1 X24.7686 Y21.2825
G1 X24.7882 Y21.2781
G1 X24.8608 Y21.2600
G1 X24.8802 Y21.2546
G1 X24.8993 Y21.2483
G1 X24.9697 Y21.2231
G1 X24.9885 Y21.2158
G1 X25.0069 Y21.2077
G1 X25.0745 Y21.1757
G1 X25.0924 Y21.1667
G1 X25.1099 Y21.1567
G1 X25.1741 Y21.1183
G1 X25.1911 Y21.1075
G1 X25.2075 Y21.0959
G1 X25.2676 Y21.0514
G1 X25.2835 Y21.0390
G1 X25.2987 Y21.0259
G1 X25.3541 Y20.9757
G1 X25.3687 Y20.9618
G1 X25.3826 Y20.9472
G1 X25.4328 Y20.8918
G1 X25.4459 Y20.8766
G1 X25.4583 Y20.8607
G1 X25.5028 Y20.8006
G1 X25.5144 Y20.7842
G1 X25.5252 Y20.7672
G1 X25.5636 Y20.7030
G1 X25.5782 Y20.6766
G1 X25.6188 Y20.5908
G1 X25.6300 Y20.5628
G1 X25.6552 Y20.4924
G1 X25.6615 Y20.4733
G1 X25.6669 Y20.4539
G1 X25.6873 Y20.3715
G1 X25.6929 Y20.3419
G1 X25.7038 Y20.2679
G1 X25.7063 Y20.2479
G1 X25.7078 Y20.2279
G1 X25.7115 Y20.1532
G1 X25.7119 Y20.1330
G1 X25.7115 Y20.1129
G1 X25.7078 Y20.0382
G1 X25.7063 Y20.0182
G1 X25.7038 Y19.9982
G1 X25.6929 Y19.9242
G1 X25.6894 Y19.9044
G1 X25.6850 Y19.8848
G1 X25.6669 Y19.8122
G1 X25.6615 Y19.7928
G1 X25.6552 Y19.7737
G1 X25.6300 Y19.7033
G1 X25.6227 Y19.6845
G1 X25.6146 Y19.6661
G1 X25.5826 Y19.5985
G1 X25.5736 Y19.5806
G1 X25.5636 Y19.5631
G1 X25.5199 Y19.4904
G1 X25.5028 Y19.4655
G1 X25.4583 Y19.4054
G1 X25.4459 Y19.3895
G1 X25.4328 Y19.3743
G1 X25.3826 Y19.3189
G1 X25.3687 Y19.3043
G1 X25.3541 Y19.2904
G1 X25.2987 Y19.2402
G1 X25.2835 Y19.2271
G1 X25.2676 Y19.2147
G1 X25.2075 Y19.1702
G1 X25.1911 Y19.1586
G1 X25.1741 Y19.1478
G1 X25.1099 Y19.1094
G1 X25.0924 Y19.0994
G1 X25.0745 Y19.0904
G1 X25.0069 Y19.0584
G1 X24.9791 Y19.0465
G1 X24.8993 Y19.0178
G1 X24.8802 Y19.0115
G1 X24.8608 Y19.0061
G1 X24.7882 Y18.9880
G1 X24.7686 Y18.9836
G1 X24.7488 Y18.9801
G1 X24.6748 Y18.9692
G1 X24.6448 Y18.9658
G1 X24.5601 Y18.9615
G1 X24.5400 Y18.9611
G1 X24.5198 Y18.9615
G1 X24.4351 Y18.9658
G1 X24.4051 Y18.9692
G1 X24.3212 Y18.9817
G1 X24.3015 Y18.9857
G1 X24.2645 Y18.9948
G1 X21.9234 Y16.6536
G1 X21.9088 Y16.6398
G1 X21.8867 Y16.6199
G1 X21.8711 Y16.6071
G1 X21.8474 Y16.5894
G1 X21.8309 Y16.5778
G1 X21.8139 Y16.5670
G1 X21.7795 Y16.5470
G1 X21.7616 Y16.5379
G1 X21.7347 Y16.5254
G1 X21.7161 Y16.5177
G1 X21.6882 Y16.5075
G1 X21.6691 Y16.5012
G1 X21.6497 Y16.4959
G1 X21.6208 Y16.4888
G1 X21.6011 Y16.4848
G1 X21.5618 Y16.4790
G1 X21.5417 Y16.4770
G1 X21.5121 Y16.4754
G1 X21.4920 Y16.4750
G1 X17.3010 Y16.4750
G1 X17.2808 Y16.4754
G1 X17.2411 Y16.4779
G1 X17.2212 Y16.4804
G1 X17.1819 Y16.4867
G1 X17.1432 Y16.4959
G1 X17.1238 Y16.5012
G1 X17.1047 Y16.5075
G1 X17.0675 Y16.5214
G1 X17.0491 Y16.5295
G1 X17.0134 Y16.5470
G1 X16.9790 Y16.5670
G1 X16.9620 Y16.5778
G1 X16.9455 Y16.5894
G1 X16.9139 Y16.6134
G1 X16.8987 Y16.6266
G1 X16.8767 Y16.6466
G1 X15.2185 Y18.3046
G1 X15.1915 Y18.3338
G1 X15.1720 Y18.3569
G1 X15.1543 Y18.3806
G1 X15.1427 Y18.3971
G1 X15.1218 Y18.4309
G1 X15.1073 Y18.4574
G1 X15.0903 Y18.4933
G1 X15.0790 Y18.5214
G1 X15.0661 Y18.5589
G1 X15.0560 Y18.5974
G1 X15.0497 Y18.6269
G1 X15.0453 Y18.6563
G1 X15.0428 Y18.6762
G1 X15.0413 Y18.6963
G1 X15.0400 Y18.7260
G1 X15.0399 Y19.1646
G0 Z0.2000
G0 X14.1298 Y19.3611
F60
G1 Z0.0000 F60
F120
G1 X14.1298 Y13.9101
G1 X14.1313 Y13.8831
G1 X14.1346 Y13.8613
G1 X14.1406 Y13.8375
G1 X14.1499 Y13.8121
G1 X14.1594 Y13.7922
G1 X14.1713 Y13.7722
G1 X14.1866 Y13.7514
G1 X14.2031 Y13.7332
G1 X21.8107 Y6.1256
G1 X21.7966 Y6.1018
G1 X21.7568 Y6.0175
G1 X21.7259 Y5.9308
G1 X21.7035 Y5.8416
G1 X21.6893 Y5.7457
G1 X21.6850 Y5.6550
G1 X21.6897 Y5.5607
G1 X21.7032 Y5.4697
G1 X21.7259 Y5.3793
G1 X21.7573 Y5.2915
G1 X21.7960 Y5.2094
G1 X21.8465 Y5.1253
G1 X21.9006 Y5.0524
G1 X21.9632 Y4.9833
G1 X22.0323 Y4.9207
G1 X22.1072 Y4.8652
G1 X22.1871 Y4.8172
G1 X22.2692 Y4.7784
G1 X22.3615 Y4.7453
G1 X22.4496 Y4.7233
G1 X22.5418 Y4.7096
G1 X22.6350 Y4.7051
G1 X22.7256 Y4.7094
G1 X22.8227 Y4.7238
G1 X22.9107 Y4.7460
G1 X22.9985 Y4.7774
G1 X23.0828 Y4.8172
G1 X23.1617 Y4.8645
G1 X23.2376 Y4.9207
G1 X23.3067 Y4.9833
G1 X23.3693 Y5.0524
G1 X23.4262 Y5.1293
G1 X23.4728 Y5.2072
G1 X23.5116 Y5.2893
G1 X23.5433 Y5.3769
G1 X23.5667 Y5.4697
G1 X23.5804 Y5.5619
G1 X23.5849 Y5.6550
G1 X23.5804 Y5.7482
G1 X23.5667 Y5.8404
G1 X23.5433 Y5.9332
G1 X23.5126 Y6.0186
G1 X23.4739 Y6.1007
G1 X23.4262 Y6.1808
G1 X23.3693 Y6.2577
G1 X23.3076 Y6.3259
G1 X23.2376 Y6.3894
G1 X23.1647 Y6.4435
G1 X23.0806 Y6.4940
G1 X22.9985 Y6.5327
G1 X22.9107 Y6.5641
G1 X22.8203 Y6.5868
G1 X22.7293 Y6.6003
G1 X22.6325 Y6.6050
G1 X22.5418 Y6.6005
G1 X22.4484 Y6.5865
G1 X22.3592 Y6.5641
G1 X22.2725 Y6.5332
G1 X22.1882 Y6.4934
G1 X22.1644 Y6.4793
G1 X14.6300 Y14.0137
G1 X14.6300 Y19.3611
G1 X14.6907 Y19.3829
G1 X14.7627 Y19.4169
G1 X14.8311 Y19.4579
G1 X14.8931 Y19.5039
G1 X14.9558 Y19.5607
G1 X15.0076 Y19.6179
G1 X15.0537 Y19.6799
G1 X15.0972 Y19.7525
G1 X15.1301 Y19.8223
G1 X15.1570 Y19.8973
G1 X15.1763 Y19.9746
G1 X15.1877 Y20.0510
G1 X15.1919 Y20.1330
G1 X15.1880 Y20.2126
G1 X15.1768 Y20.2890
G1 X15.1562 Y20.3711
G1 X15.1301 Y20.4438
G1 X15.0961 Y20.5158
G1 X15.0551 Y20.5842
G1 X15.0091 Y20.6462
G1 X14.9523 Y20.7089
G1 X14.8951 Y20.7607
G1 X14.8311 Y20.8082
G1 X14.7627 Y20.8492
G1 X14.6929 Y20.8822
G1 X14.6157 Y20.9101
G1 X14.5384 Y20.9294
G1 X14.4595 Y20.9411
G1 X14.3800 Y20.9450
G1 X14.3004 Y20.9411
G1 X14.2215 Y20.9294
G1 X14.1442 Y20.9101
G1 X14.0692 Y20.8832
G1 X13.9972 Y20.8492
G1 X13.9288 Y20.8082
G1 X13.8648 Y20.7607
G1 X13.8058 Y20.7072
G1 X13.7523 Y20.6482
G1 X13.7048 Y20.5842
G1 X13.6638 Y20.5158
G1 X13.6298 Y20.4438
G1 X13.6029 Y20.3688
G1 X13.5836 Y20.2915
G1 X13.5719 Y20.2126
G1 X13.5680 Y20.1330
G1 X13.5719 Y20.0535
G1 X13.5836 Y19.9746
G1 X13.6029 Y19.8973
G1 X13.6298 Y19.8223
G1 X13.6638 Y19.7503
G1 X13.7048 Y19.6819
G1 X13.7523 Y19.6179
G1 X13.8058 Y19.5589
G1 X13.8648 Y19.5054
G1 X13.9288 Y19.4579
G1 X13.9972 Y19.4169
G1 X14.0692 Y19.3829
G1 X14.1298 Y19.3611
G0 Z0.2000
G0 X14.0398 Y19.2977
F60
G1 Z0.0000 F60
F120
G1 X14.0398 Y13.9101
G1 X14.0415 Y13.8767
G1 X14.0452 Y13.8505
G1 X14.0471 Y13.8404
G1 X14.0545 Y13.8113
G1 X14.0644 Y13.7831
G1 X14.0685 Y13.7736
G1 X14.0800 Y13.7497
G1 X14.0953 Y13.7240
G1 X14.1011 Y13.7155
G1 X14.1170 Y13.6943
G1 X14.1394 Y13.6696
G1 X21.7003 Y6.1087
G1 X21.6769 Y6.0593
G1 X21.6728 Y6.0499
G1 X21.6419 Y5.9635
G1 X21.6388 Y5.9536
G1 X21.6149 Y5.8579
G1 X21.6003 Y5.7604
G1 X21.5995 Y5.7501
G1 X21.5951 Y5.6619
G1 X21.5951 Y5.6482
G1 X21.6000 Y5.5531
G1 X21.6143 Y5.4555
G1 X21.6164 Y5.4455
G1 X21.6379 Y5.3598
G1 X21.6419 Y5.3466
G1 X21.6741 Y5.2571
G1 X21.7178 Y5.1648
G1 X21.7702 Y5.0773
G1 X21.8268 Y5.0007
G1 X21.8355 Y4.9901
G1 X21.8996 Y4.9197
G1 X21.9752 Y4.8511
G1 X22.0572 Y4.7903
G1 X22.1447 Y4.7379
G1 X22.2307 Y4.6970
G1 X22.2434 Y4.6917
G1 X22.3265 Y4.6620
G1 X22.3397 Y4.6580
G1 X22.4321 Y4.6350
G1 X22.5330 Y4.6201
G1 X22.6350 Y4.6151
G1 X22.7300 Y4.6196
G1 X22.7437 Y4.6209
G1 X22.8311 Y4.6339
G1 X22.8445 Y4.6365
G1 X22.9368 Y4.6598
G1 X23.0329 Y4.6942
G1 X23.1252 Y4.7379
G1 X23.2099 Y4.7884
G1 X23.2184 Y4.7943
G1 X23.2947 Y4.8511
G1 X23.3703 Y4.9197
G1 X23.4389 Y4.9953
G1 X23.4957 Y5.0716
G1 X23.5034 Y5.0831
G1 X23.5521 Y5.1648
G1 X23.5930 Y5.2508
G1 X23.5983 Y5.2635
G1 X23.6280 Y5.3466
G1 X23.6320 Y5.3598
G1 X23.6550 Y5.4522
G1 X23.6699 Y5.5531
G1 X23.6749 Y5.6550
G1 X23.6699 Y5.7570
G1 X23.6550 Y5.8579
G1 X23.6320 Y5.9503
G1 X23.6280 Y5.9635
G1 X23.5958 Y6.0530
G1 X23.5552 Y6.1392
G1 X23.5488 Y6.1513
G1 X23.4997 Y6.2328
G1 X23.4431 Y6.3094
G1 X23.4344 Y6.3200
G1 X23.3751 Y6.3855
G1 X23.3654 Y6.3952
G1 X23.2999 Y6.4545
G1 X23.2893 Y6.4632
G1 X23.2127 Y6.5198
G1 X23.1252 Y6.5722
G1 X23.0329 Y6.6159
G1 X22.9434 Y6.6481
G1 X22.9302 Y6.6521
G1 X22.8445 Y6.6736
G1 X22.8345 Y6.6757
G1 X22.7369 Y6.6900
G1 X22.6418 Y6.6949
G1 X22.6281 Y6.6949
G1 X22.5399 Y6.6905
G1 X22.5296 Y6.6897
G1 X22.4321 Y6.6751
G1 X22.3364 Y6.6512
G1 X22.3265 Y6.6481
G1 X22.2401 Y6.6172
G1 X22.2307 Y6.6131
G1 X22.1812 Y6.5897
G1 X14.7200 Y14.0509
G1 X14.7200 Y19.2977
G1 X14.7314 Y19.3025
G1 X14.7990 Y19.3345
G1 X14.8111 Y19.3409
G1 X14.8811 Y19.3831
G1 X14.9522 Y19.4358
G1 X15.0128 Y19.4905
G1 X15.0225 Y19.5002
G1 X15.0772 Y19.5608
G1 X15.1299 Y19.6319
G1 X15.1754 Y19.7079
G1 X15.2105 Y19.7816
G1 X15.2158 Y19.7943
G1 X15.2431 Y19.8712
G1 X15.2646 Y19.9571
G1 X15.2768 Y20.0378
G1 X15.2781 Y20.0515
G1 X15.2819 Y20.1330
G1 X15.2781 Y20.2146
G1 X15.2768 Y20.2283
G1 X15.2646 Y20.3090
G1 X15.2431 Y20.3949
G1 X15.2158 Y20.4718
G1 X15.2105 Y20.4845
G1 X15.1754 Y20.5582
G1 X15.1299 Y20.6342
G1 X15.0772 Y20.7053
G1 X15.0225 Y20.7659
G1 X15.0128 Y20.7756
G1 X14.9522 Y20.8303
G1 X14.8811 Y20.8830
G1 X14.8111 Y20.9252
G1 X14.7990 Y20.9316
G1 X14.7251 Y20.9664
G1 X14.6418 Y20.9962
G1 X14.5559 Y21.0177
G1 X14.4684 Y21.0307
G1 X14.3800 Y21.0350
G1 X14.2915 Y21.0307
G1 X14.2040 Y21.0177
G1 X14.1181 Y20.9962
G1 X14.0348 Y20.9664
G1 X13.9548 Y20.9285
G1 X13.8788 Y20.8830
G1 X13.8077 Y20.8303
G1 X13.7421 Y20.7709
G1 X13.6827 Y20.7053
G1 X13.6300 Y20.6342
G1 X13.5845 Y20.5582
G1 X13.5466 Y20.4782
G1 X13.5168 Y20.3949
G1 X13.4953 Y20.3090
G1 X13.4823 Y20.2215
G1 X13.4780 Y20.1330
G1 X13.4823 Y20.0446
G1 X13.4953 Y19.9571
G1 X13.5168 Y19.8712
G1 X13.5466 Y19.7879
G1 X13.5845 Y19.7079
G1 X13.6300 Y19.6319
G1 X13.6827 Y19.5608
G1 X13.7421 Y19.4952
G1 X13.8077 Y19.4358
G1 X13.8788 Y19.3831
G1 X13.9548 Y19.3376
G1 X14.0285 Y19.3025
G1 X14.0398 Y19.2977
G0 Z0.2000
G0 X11.5898 Y19.3611
F60
G1 Z0.0000 F60
F120
G1 X11.5898 Y8.4491
G1 X11.5910 Y8.4246
G1 X11.5952 Y8.3979
G1 X11.6006 Y8.3765
G1 X11.6080 Y8.3557
G1 X11.6194 Y8.3312
G1 X11.6320 Y8.3101
G1 X11.6451 Y8.2923
G1 X11.6631 Y8.2722
G1 X14.1907 Y5.7446
G1 X14.1766 Y5.7208
G1 X14.1368 Y5.6365
G1 X14.1059 Y5.5498
G1 X14.0835 Y5.4606
G1 X14.0693 Y5.3647
G1 X14.0650 Y5.2740
G1 X14.0694 Y5.1822
G1 X14.0837 Y5.0863
G1 X14.1059 Y4.9983
G1 X14.1373 Y4.9105
G1 X14.1771 Y4.8262
G1 X14.2237 Y4.7483
G1 X14.2822 Y4.6695
G1 X14.3432 Y4.6023
G1 X14.4104 Y4.5413
G1 X14.4872 Y4.4842
G1 X14.5693 Y4.4351
G1 X14.6514 Y4.3964
G1 X14.7368 Y4.3657
G1 X14.8296 Y4.3423
G1 X14.9243 Y4.3284
G1 X15.0150 Y4.3241
G1 X15.1056 Y4.3284
G1 X15.2027 Y4.3428
G1 X15.2907 Y4.3650
G1 X15.3762 Y4.3955
G1 X15.4606 Y4.4351
G1 X15.5427 Y4.4842
G1 X15.6176 Y4.5397
G1 X15.6884 Y4.6041
G1 X15.7493 Y4.6714
G1 X15.8034 Y4.7443
G1 X15.8528 Y4.8262
G1 X15.8926 Y4.9105
G1 X15.9247 Y5.0006
G1 X15.9467 Y5.0887
G1 X15.9601 Y5.1785
G1 X15.9649 Y5.2740
G1 X15.9604 Y5.3672
G1 X15.9462 Y5.4618
G1 X15.9240 Y5.5498
G1 X15.8935 Y5.6353
G1 X15.8528 Y5.7219
G1 X15.8034 Y5.8038
G1 X15.7493 Y5.8767
G1 X15.6867 Y5.9458
G1 X15.6176 Y6.0084
G1 X15.5427 Y6.0639
G1 X15.4628 Y6.1119
G1 X15.3785 Y6.1517
G1 X15.2907 Y6.1831
G1 X15.2015 Y6.2055
G1 X15.1081 Y6.2195
G1 X15.0150 Y6.2240
G1 X14.9218 Y6.2195
G1 X14.8308 Y6.2060
G1 X14.7392 Y6.1831
G1 X14.6525 Y6.1522
G1 X14.5682 Y6.1124
G1 X14.5444 Y6.0983
G1 X12.0900 Y8.5527
G1 X12.0900 Y19.3611
G1 X12.1507 Y19.3829
G1 X12.2227 Y19.4169
G1 X12.2911 Y19.4579
G1 X12.3531 Y19.5039
G1 X12.4158 Y19.5607
G1 X12.4676 Y19.6179
G1 X12.5137 Y19.6799
G1 X12.5572 Y19.7525
G1 X12.5901 Y19.8223
G1 X12.6170 Y19.8973
G1 X12.6368 Y19.9771
G1 X12.6480 Y20.0535
G1 X12.6519 Y20.1330
G1 X12.6477 Y20.2151
G1 X12.6363 Y20.2915
G1 X12.6170 Y20.3688
G1 X12.5901 Y20.4438
G1 X12.5572 Y20.5136
G1 X12.5137 Y20.5862
G1 X12.4676 Y20.6482
G1 X12.4141 Y20.7072
G1 X12.3551 Y20.7607
G1 X12.2931 Y20.8068
G1 X12.2205 Y20.8503
G1 X12.1507 Y20.8832
G1 X12.0757 Y20.9101
G1 X11.9984 Y20.9294
G1 X11.9195 Y20.9411
G1 X11.8400 Y20.9450
G1 X11.7604 Y20.9411
G1 X11.6815 Y20.9294
G1 X11.6042 Y20.9101
G1 X11.5292 Y20.8832
G1 X11.4572 Y20.8492
G1 X11.3888 Y20.8082
G1 X11.3248 Y20.7607
G1 X11.2658 Y20.7072
G1 X11.2123 Y20.6482
G1 X11.1648 Y20.5842
G1 X11.1238 Y20.5158
G1 X11.0898 Y20.4438
G1 X11.0629 Y20.3688
G1 X11.0436 Y20.2915
G1 X11.0319 Y20.2126
G1 X11.0280 Y20.1330
G1 X11.0319 Y20.0535
G1 X11.0436 Y19.9746
G1 X11.0629 Y19.8973
G1 X11.0898 Y19.8223
G1 X11.1238 Y19.7503
G1 X11.1648 Y19.6819
G1 X11.2123 Y19.6179
G1 X11.2658 Y19.5589
G1 X11.3248 Y19.5054
G1 X11.3888 Y19.4579
G1 X11.4572 Y19.4169
G1 X11.5292 Y19.3829
G1 X11.5898 Y19.3611
G0 Z0.2000
G0 X11.4998 Y19.2977
F60
G1 Z0.0000 F60
F120
G1 X11.4998 Y8.4491
G1 X11.5012 Y8.4192
G1 X11.5023 Y8.4089
G1 X11.5064 Y8.3827
G1 X11.5126 Y8.3570
G1 X11.5155 Y8.3471
G1 X11.5257 Y8.3189
G1 X11.5384 Y8.2918
G1 X11.5434 Y8.2828
G1 X11.5571 Y8.2601
G1 X11.5728 Y8.2387
G1 X11.5792 Y8.2307
G1 X11.5994 Y8.2086
G1 X14.0803 Y5.7277
G1 X14.0569 Y5.6783
G1 X14.0528 Y5.6689
G1 X14.0219 Y5.5825
G1 X14.0188 Y5.5726
G1 X13.9949 Y5.4769
G1 X13.9803 Y5.3794
G1 X13.9795 Y5.3691
G1 X13.9751 Y5.2809
G1 X13.9751 Y5.2672
G1 X13.9800 Y5.1721
G1 X13.9943 Y5.0745
G1 X13.9964 Y5.0645
G1 X14.0179 Y4.9788
G1 X14.0219 Y4.9656
G1 X14.0541 Y4.8761
G1 X14.0978 Y4.7838
G1 X14.1465 Y4.7021
G1 X14.1542 Y4.6906
G1 X14.2110 Y4.6143
G1 X14.2772 Y4.5411
G1 X14.2845 Y4.5339
G1 X14.3500 Y4.4746
G1 X14.3606 Y4.4659
G1 X14.4372 Y4.4093
G1 X14.5187 Y4.3602
G1 X14.5308 Y4.3538
G1 X14.6170 Y4.3132
G1 X14.7065 Y4.2810
G1 X14.7197 Y4.2770
G1 X14.8121 Y4.2540
G1 X14.9062 Y4.2399
G1 X14.9199 Y4.2386
G1 X15.0150 Y4.2341
G1 X15.1100 Y4.2386
G1 X15.1237 Y4.2399
G1 X15.2178 Y4.2540
G1 X15.3102 Y4.2770
G1 X15.3234 Y4.2810
G1 X15.4129 Y4.3132
G1 X15.4991 Y4.3538
G1 X15.5112 Y4.3602
G1 X15.5927 Y4.4093
G1 X15.6693 Y4.4659
G1 X15.6799 Y4.4746
G1 X15.7503 Y4.5387
G1 X15.8189 Y4.6143
G1 X15.8757 Y4.6906
G1 X15.8834 Y4.7021
G1 X15.9288 Y4.7778
G1 X15.9352 Y4.7899
G1 X15.9758 Y4.8761
G1 X16.0080 Y4.9656
G1 X16.0120 Y4.9788
G1 X16.0350 Y5.0712
G1 X16.0499 Y5.1721
G1 X16.0549 Y5.2740
G1 X16.0504 Y5.3691
G1 X16.0491 Y5.3828
G1 X16.0350 Y5.4769
G1 X16.0120 Y5.5693
G1 X16.0080 Y5.5825
G1 X15.9783 Y5.6656
G1 X15.9730 Y5.6783
G1 X15.9321 Y5.7643
G1 X15.8834 Y5.8460
G1 X15.8757 Y5.8575
G1 X15.8189 Y5.9338
G1 X15.7503 Y6.0094
G1 X15.6747 Y6.0780
G1 X15.5984 Y6.1348
G1 X15.5869 Y6.1425
G1 X15.5112 Y6.1879
G1 X15.4991 Y6.1943
G1 X15.4129 Y6.2349
G1 X15.3234 Y6.2671
G1 X15.3135 Y6.2702
G1 X15.2178 Y6.2941
G1 X15.1169 Y6.3090
G1 X15.0150 Y6.3140
G1 X14.9164 Y6.3093
G1 X14.9062 Y6.3082
G1 X14.8121 Y6.2941
G1 X14.7164 Y6.2702
G1 X14.7065 Y6.2671
G1 X14.6201 Y6.2362
G1 X14.6107 Y6.2321
G1 X14.5612 Y6.2087
G1 X12.1800 Y8.5899
G1 X12.1800 Y19.2977
G1 X12.1914 Y19.3025
G1 X12.2590 Y19.3345
G1 X12.2711 Y19.3409
G1 X12.3411 Y19.3831
G1 X12.4122 Y19.4358
G1 X12.4728 Y19.4905
G1 X12.4825 Y19.5002
G1 X12.5372 Y19.5608
G1 X12.5899 Y19.6319
G1 X12.6354 Y19.7079
G1 X12.6705 Y19.7816
G1 X12.6758 Y19.7943
G1 X12.7031 Y19.8712
G1 X12.7231 Y19.9504
G1 X12.7258 Y19.9638
G1 X12.7376 Y20.0446
G1 X12.7419 Y20.1330
G1 X12.7381 Y20.2146
G1 X12.7368 Y20.2283
G1 X12.7246 Y20.3090
G1 X12.7031 Y20.3949
G1 X12.6733 Y20.4782
G1 X12.6385 Y20.5521
G1 X12.6321 Y20.5642
G1 X12.5899 Y20.6342
G1 X12.5372 Y20.7053
G1 X12.4825 Y20.7659
G1 X12.4728 Y20.7756
G1 X12.4122 Y20.8303
G1 X12.3467 Y20.8791
G1 X12.3353 Y20.8867
G1 X12.2651 Y20.9285
G1 X12.1851 Y20.9664
G1 X12.1018 Y20.9962
G1 X12.0159 Y21.0177
G1 X11.9284 Y21.0307
G1 X11.8400 Y21.0350
G1 X11.7515 Y21.0307
G1 X11.6640 Y21.0177
G1 X11.5781 Y20.9962
G1 X11.4948 Y20.9664
G1 X11.4148 Y20.9285
G1 X11.3388 Y20.8830
G1 X11.2677 Y20.8303
G1 X11.2021 Y20.7709
G1 X11.1427 Y20.7053
G1 X11.0900 Y20.6342
G1 X11.0445 Y20.5582
G1 X11.0066 Y20.4782
G1 X10.9768 Y20.3949
G1 X10.9553 Y20.3090
G1 X10.9423 Y20.2215
G1 X10.9380 Y20.1330
G1 X10.9423 Y20.0446
G1 X10.9553 Y19.9571
G1 X10.9768 Y19.8712
G1 X11.0066 Y19.7879
G1 X11.0445 Y19.7079
G1 X11.0900 Y19.6319
G1 X11.1427 Y19.5608
G1 X11.2021 Y19.4952
G1 X11.2677 Y19.4358
G1 X11.3388 Y19.3831
G1 X11.4148 Y19.3376
G1 X11.4885 Y19.3025
G1 X11.4998 Y19.2977
G0 Z0.2000
G0 X11.4098 Y19.2401
F60
G1 Z0.0000 F60
F120
G1 X11.4098 Y8.4491
G1 X11.4114 Y8.4125
G1 X11.4133 Y8.3957
G1 X11.4181 Y8.3652
G1 X11.4253 Y8.3351
G1 X11.4300 Y8.3188
G1 X11.4426 Y8.2845
G1 X11.4555 Y8.2564
G1 X11.4633 Y8.2414
G1 X11.4823 Y8.2101
G1 X11.5005 Y8.1851
G1 X11.5111 Y8.1719
G1 X11.5319 Y8.1490
G1 X13.9720 Y5.7088
G1 X13.9669 Y5.6959
G1 X13.9371 Y5.6128
G1 X13.9336 Y5.6021
G1 X13.9306 Y5.5912
G1 X13.9067 Y5.4945
G1 X13.9047 Y5.4834
G1 X13.8904 Y5.3848
G1 X13.8896 Y5.3736
G1 X13.8850 Y5.2740
G1 X13.8896 Y5.1745
G1 X13.8904 Y5.1633
G1 X13.8918 Y5.1521
G1 X13.9067 Y5.0536
G1 X13.9306 Y4.9569
G1 X13.9336 Y4.9460
G1 X13.9669 Y4.8522
G1 X13.9710 Y4.8416
G1 X13.9755 Y4.8313
G1 X14.0184 Y4.7414
G1 X14.0693 Y4.6558
G1 X14.0754 Y4.6463
G1 X14.0819 Y4.6370
G1 X14.1414 Y4.5572
G1 X14.1488 Y4.5486
G1 X14.2120 Y4.4791
G1 X14.2241 Y4.4672
G1 X14.2895 Y4.4079
G1 X14.2981 Y4.4005
G1 X14.3070 Y4.3936
G1 X14.3872 Y4.3345
G1 X14.4724 Y4.2830
G1 X14.4823 Y4.2775
G1 X14.4924 Y4.2724
G1 X14.5825 Y4.2301
G1 X14.6762 Y4.1962
G1 X14.6869 Y4.1927
G1 X14.6978 Y4.1897
G1 X14.7945 Y4.1658
G1 X14.8930 Y4.1509
G1 X14.9042 Y4.1495
G1 X14.9154 Y4.1487
G1 X15.0150 Y4.1441
G1 X15.1145 Y4.1487
G1 X15.1257 Y4.1495
G1 X15.1369 Y4.1509
G1 X15.2354 Y4.1658
G1 X15.3321 Y4.1897
G1 X15.3430 Y4.1927
G1 X15.3537 Y4.1962
G1 X15.4474 Y4.2301
G1 X15.5375 Y4.2724
G1 X15.5476 Y4.2775
G1 X15.5575 Y4.2830
G1 X15.6332 Y4.3284
G1 X15.6427 Y4.3345
G1 X15.6520 Y4.3410
G1 X15.7318 Y4.4005
G1 X15.8058 Y4.4672
G1 X15.8140 Y4.4750
G1 X15.8218 Y4.4832
G1 X15.8885 Y4.5572
G1 X15.8954 Y4.5661
G1 X15.9545 Y4.6463
G1 X16.0060 Y4.7315
G1 X16.0115 Y4.7414
G1 X16.0544 Y4.8313
G1 X16.0589 Y4.8416
G1 X16.0630 Y4.8522
G1 X16.0928 Y4.9353
G1 X16.0963 Y4.9460
G1 X16.0993 Y4.9569
G1 X16.1232 Y5.0536
G1 X16.1381 Y5.1521
G1 X16.1395 Y5.1633
G1 X16.1403 Y5.1745
G1 X16.1449 Y5.2740
G1 X16.1403 Y5.3736
G1 X16.1395 Y5.3848
G1 X16.1252 Y5.4834
G1 X16.1232 Y5.4945
G1 X16.1208 Y5.5055
G1 X16.0963 Y5.6021
G1 X16.0630 Y5.6959
G1 X16.0589 Y5.7065
G1 X16.0544 Y5.7168
G1 X16.0115 Y5.8067
G1 X15.9606 Y5.8923
G1 X15.9513 Y5.9065
G1 X15.8954 Y5.9820
G1 X15.8885 Y5.9909
G1 X15.8218 Y6.0649
G1 X15.8140 Y6.0731
G1 X15.7404 Y6.1402
G1 X15.7318 Y6.1476
G1 X15.6520 Y6.2071
G1 X15.6427 Y6.2136
G1 X15.6332 Y6.2197
G1 X15.5575 Y6.2651
G1 X15.5476 Y6.2706
G1 X15.5375 Y6.2757
G1 X15.4474 Y6.3180
G1 X15.4368 Y6.3221
G1 X15.3430 Y6.3554
G1 X15.2464 Y6.3799
G1 X15.2354 Y6.3823
G1 X15.1369 Y6.3972
G1 X15.1257 Y6.3986
G1 X15.0262 Y6.4038
G1 X15.0150 Y6.4040
G1 X14.9154 Y6.3994
G1 X14.9042 Y6.3986
G1 X14.8930 Y6.3972
G1 X14.8056 Y6.3843
G1 X14.7945 Y6.3823
G1 X14.7835 Y6.3799
G1 X14.6869 Y6.3554
G1 X14.5931 Y6.3221
G1 X14.5802 Y6.3170
G1 X12.2700 Y8.6272
G1 X12.2700 Y19.2401
G1 X12.3026 Y19.2556
G1 X12.3125 Y19.2609
G1 X12.3863 Y19.3052
G1 X12.4003 Y19.3147
G1 X12.4604 Y19.3593
G1 X12.4736 Y19.3699
G1 X12.5332 Y19.4238
G1 X12.5414 Y19.4316
G1 X12.5994 Y19.4952
G1 X12.6068 Y19.5037
G1 X12.6137 Y19.5126
G1 X12.6583 Y19.5727
G1 X12.6678 Y19.5867
G1 X12.7093 Y19.6556
G1 X12.7148 Y19.6654
G1 X12.7519 Y19.7431
G1 X12.7564 Y19.7534
G1 X12.7605 Y19.7640
G1 X12.7892 Y19.8451
G1 X12.8104 Y19.9285
G1 X12.8129 Y19.9395
G1 X12.8148 Y19.9506
G1 X12.8272 Y20.0358
G1 X12.8317 Y20.1218
G1 X12.8319 Y20.1330
G1 X12.8280 Y20.2190
G1 X12.8272 Y20.2303
G1 X12.8258 Y20.2415
G1 X12.8129 Y20.3266
G1 X12.8104 Y20.3376
G1 X12.7892 Y20.4210
G1 X12.7605 Y20.5021
G1 X12.7564 Y20.5127
G1 X12.7519 Y20.5230
G1 X12.7148 Y20.6007
G1 X12.6708 Y20.6746
G1 X12.6648 Y20.6842
G1 X12.6583 Y20.6934
G1 X12.6068 Y20.7624
G1 X12.5492 Y20.8263
G1 X12.5414 Y20.8345
G1 X12.5332 Y20.8423
G1 X12.4693 Y20.8999
G1 X12.4003 Y20.9514
G1 X12.3911 Y20.9579
G1 X12.3815 Y20.9639
G1 X12.3174 Y21.0024
G1 X12.3026 Y21.0105
G1 X12.2299 Y21.0450
G1 X12.2196 Y21.0495
G1 X12.1386 Y21.0788
G1 X12.1279 Y21.0823
G1 X12.1170 Y21.0853
G1 X12.0335 Y21.1060
G1 X11.9484 Y21.1189
G1 X11.9372 Y21.1203
G1 X11.8512 Y21.1248
G1 X11.8400 Y21.1250
G1 X11.8287 Y21.1248
G1 X11.7427 Y21.1203
G1 X11.6575 Y21.1079
G1 X11.6464 Y21.1060
G1 X11.6354 Y21.1035
G1 X11.5520 Y21.0823
G1 X11.5413 Y21.0788
G1 X11.4603 Y21.0495
G1 X11.3824 Y21.0130
G1 X11.3723 Y21.0079
G1 X11.3625 Y21.0024
G1 X11.2888 Y20.9579
G1 X11.2195 Y20.9068
G1 X11.2106 Y20.8999
G1 X11.2021 Y20.8925
G1 X11.1385 Y20.8345
G1 X11.0805 Y20.7709
G1 X11.0731 Y20.7624
G1 X11.0216 Y20.6934
G1 X11.0151 Y20.6842
G1 X10.9706 Y20.6105
G1 X10.9625 Y20.5957
G1 X10.9280 Y20.5230
G1 X10.9235 Y20.5127
G1 X10.8942 Y20.4317
G1 X10.8907 Y20.4210
G1 X10.8695 Y20.3376
G1 X10.8670 Y20.3266
G1 X10.8541 Y20.2415
G1 X10.8527 Y20.2303
G1 X10.8519 Y20.2190
G1 X10.8480 Y20.1330
G1 X10.8519 Y20.0471
G1 X10.8527 Y20.0358
G1 X10.8541 Y20.0246
G1 X10.8670 Y19.9395
G1 X10.8877 Y19.8560
G1 X10.8924 Y19.8397
G1 X10.9194 Y19.7640
G1 X10.9235 Y19.7534
G1 X10.9280 Y19.7431
G1 X10.9651 Y19.6654
G1 X11.0091 Y19.5915
G1 X11.0151 Y19.5819
G1 X11.0662 Y19.5126
G1 X11.0768 Y19.4994
G1 X11.1307 Y19.4398
G1 X11.1385 Y19.4316
G1 X11.2021 Y19.3736
G1 X11.2150 Y19.3627
G1 X11.2796 Y19.3147
G1 X11.2936 Y19.3052
G1 X11.3674 Y19.2609
G1 X11.3773 Y19.2556
G1 X11.4098 Y19.2401
G0 Z0.2000
G0 X11.3198 Y19.1845
F60
G1 Z0.0000 F60
F120
G1 X11.3198 Y8.4491
G1 X11.3202 Y8.4334
G1 X11.3217 Y8.4059
G1 X11.3242 Y8.3825
G1 X11.3298 Y8.3476
G1 X11.3333 Y8.3323
G1 X11.3400 Y8.3056
G1 X11.3471 Y8.2832
G1 X11.3594 Y8.2500
G1 X11.3742 Y8.2179
G1 X11.3850 Y8.1970
G1 X11.3991 Y8.1734
G1 X11.4075 Y8.1601
G1 X11.4282 Y8.1315
G1 X11.4429 Y8.1131
G1 X11.4667 Y8.0869
G1 X13.8677 Y5.6858
G1 X13.8499 Y5.6357
G1 X13.8453 Y5.6207
G1 X13.8200 Y5.5197
G1 X13.8157 Y5.4966
G1 X13.8027 Y5.4092
G1 X13.8002 Y5.3858
G1 X13.7953 Y5.2898
G1 X13.7950 Y5.2740
G1 X13.7953 Y5.2583
G1 X13.7997 Y5.1701
G1 X13.8008 Y5.1545
G1 X13.8027 Y5.1389
G1 X13.8157 Y5.0515
G1 X13.8200 Y5.0284
G1 X13.8433 Y4.9350
G1 X13.8475 Y4.9199
G1 X13.8524 Y4.9050
G1 X13.8822 Y4.8218
G1 X13.8878 Y4.8072
G1 X13.8942 Y4.7928
G1 X13.9319 Y4.7130
G1 X13.9390 Y4.6989
G1 X13.9467 Y4.6853
G1 X13.9922 Y4.6095
G1 X14.0006 Y4.5963
G1 X14.0096 Y4.5834
G1 X14.0622 Y4.5125
G1 X14.0719 Y4.5001
G1 X14.0821 Y4.4882
G1 X14.1468 Y4.4170
G1 X14.1637 Y4.4005
G1 X14.2291 Y4.3412
G1 X14.2410 Y4.3310
G1 X14.2534 Y4.3213
G1 X14.3243 Y4.2687
G1 X14.3372 Y4.2597
G1 X14.3504 Y4.2513
G1 X14.4262 Y4.2058
G1 X14.4398 Y4.1981
G1 X14.4539 Y4.1910
G1 X14.5337 Y4.1533
G1 X14.5481 Y4.1469
G1 X14.5627 Y4.1413
G1 X14.6459 Y4.1115
G1 X14.6608 Y4.1066
G1 X14.6759 Y4.1024
G1 X14.7616 Y4.0809
G1 X14.7769 Y4.0775
G1 X14.7924 Y4.0748
G1 X14.8798 Y4.0618
G1 X14.8954 Y4.0599
G1 X14.9110 Y4.0588
G1 X14.9992 Y4.0544
G1 X15.0150 Y4.0541
G1 X15.0307 Y4.0544
G1 X15.1189 Y4.0588
G1 X15.1345 Y4.0599
G1 X15.1501 Y4.0618
G1 X15.2375 Y4.0748
G1 X15.2530 Y4.0775
G1 X15.2683 Y4.0809
G1 X15.3616 Y4.1044
G1 X15.3840 Y4.1115
G1 X15.4672 Y4.1413
G1 X15.4818 Y4.1469
G1 X15.4962 Y4.1533
G1 X15.5760 Y4.1910
G1 X15.5901 Y4.1981
G1 X15.6037 Y4.2058
G1 X15.6862 Y4.2554
G1 X15.7056 Y4.2687
G1 X15.7765 Y4.3213
G1 X15.7889 Y4.3310
G1 X15.8008 Y4.3412
G1 X15.8662 Y4.4005
G1 X15.8776 Y4.4114
G1 X15.8885 Y4.4228
G1 X15.9478 Y4.4882
G1 X15.9580 Y4.5001
G1 X15.9677 Y4.5125
G1 X16.0203 Y4.5834
G1 X16.0293 Y4.5963
G1 X16.0377 Y4.6095
G1 X16.0832 Y4.6853
G1 X16.0909 Y4.6989
G1 X16.0980 Y4.7130
G1 X16.1357 Y4.7928
G1 X16.1421 Y4.8072
G1 X16.1477 Y4.8218
G1 X16.1800 Y4.9124
G1 X16.1866 Y4.9350
G1 X16.2081 Y5.0207
G1 X16.2115 Y5.0360
G1 X16.2142 Y5.0515
G1 X16.2272 Y5.1389
G1 X16.2291 Y5.1545
G1 X16.2302 Y5.1701
G1 X16.2346 Y5.2583
G1 X16.2349 Y5.2740
G1 X16.2346 Y5.2898
G1 X16.2302 Y5.3780
G1 X16.2291 Y5.3936
G1 X16.2272 Y5.4092
G1 X16.2142 Y5.4966
G1 X16.2115 Y5.5121
G1 X16.2081 Y5.5274
G1 X16.1866 Y5.6131
G1 X16.1824 Y5.6282
G1 X16.1775 Y5.6431
G1 X16.1477 Y5.7263
G1 X16.1421 Y5.7409
G1 X16.1357 Y5.7553
G1 X16.0980 Y5.8351
G1 X16.0909 Y5.8492
G1 X16.0832 Y5.8628
G1 X16.0377 Y5.9386
G1 X16.0293 Y5.9518
G1 X16.0203 Y5.9647
G1 X15.9677 Y6.0356
G1 X15.9580 Y6.0480
G1 X15.9478 Y6.0599
G1 X15.8885 Y6.1253
G1 X15.8776 Y6.1367
G1 X15.8662 Y6.1476
G1 X15.7949 Y6.2121
G1 X15.7765 Y6.2268
G1 X15.7056 Y6.2794
G1 X15.6927 Y6.2884
G1 X15.6795 Y6.2968
G1 X15.6037 Y6.3423
G1 X15.5901 Y6.3500
G1 X15.5760 Y6.3571
G1 X15.4962 Y6.3948
G1 X15.4818 Y6.4012
G1 X15.4672 Y6.4068
G1 X15.3766 Y6.4391
G1 X15.3540 Y6.4457
G1 X15.2683 Y6.4672
G1 X15.2530 Y6.4706
G1 X15.2375 Y6.4733
G1 X15.1501 Y6.4863
G1 X15.1345 Y6.4882
G1 X15.1189 Y6.4893
G1 X15.0307 Y6.4937
G1 X15.0071 Y6.4940
G1 X14.9110 Y6.4893
G1 X14.8954 Y6.4882
G1 X14.8798 Y6.4863
G1 X14.7847 Y6.4720
G1 X14.7616 Y6.4672
G1 X14.6683 Y6.4437
G1 X14.6533 Y6.4391
G1 X14.6032 Y6.4213
G1 X12.3600 Y8.6645
G1 X12.3600 Y19.1844
G1 X12.4278 Y19.2250
G1 X12.4411 Y19.2334
G1 X12.4539 Y19.2424
G1 X12.5140 Y19.2870
G1 X12.5264 Y19.2967
G1 X12.5383 Y19.3069
G1 X12.5937 Y19.3571
G1 X12.6050 Y19.3680
G1 X12.6159 Y19.3793
G1 X12.6661 Y19.4347
G1 X12.6763 Y19.4466
G1 X12.6860 Y19.4590
G1 X12.7306 Y19.5191
G1 X12.7396 Y19.5319
G1 X12.7480 Y19.5452
G1 X12.7864 Y19.6093
G1 X12.7942 Y19.6230
G1 X12.8013 Y19.6370
G1 X12.8332 Y19.7046
G1 X12.8396 Y19.7190
G1 X12.8452 Y19.7336
G1 X12.8704 Y19.8040
G1 X12.8754 Y19.8190
G1 X12.8795 Y19.8341
G1 X12.8977 Y19.9066
G1 X12.9012 Y19.9220
G1 X12.9038 Y19.9374
G1 X12.9148 Y20.0114
G1 X12.9167 Y20.0270
G1 X12.9179 Y20.0427
G1 X12.9216 Y20.1173
G1 X12.9219 Y20.1330
G1 X12.9216 Y20.1488
G1 X12.9179 Y20.2234
G1 X12.9167 Y20.2391
G1 X12.9148 Y20.2547
G1 X12.9038 Y20.3287
G1 X12.9012 Y20.3441
G1 X12.8977 Y20.3595
G1 X12.8795 Y20.4320
G1 X12.8754 Y20.4471
G1 X12.8704 Y20.4621
G1 X12.8452 Y20.5325
G1 X12.8396 Y20.5471
G1 X12.8332 Y20.5615
G1 X12.8013 Y20.6291
G1 X12.7942 Y20.6431
G1 X12.7864 Y20.6568
G1 X12.7480 Y20.7209
G1 X12.7396 Y20.7342
G1 X12.7306 Y20.7470
G1 X12.6860 Y20.8071
G1 X12.6763 Y20.8195
G1 X12.6661 Y20.8314
G1 X12.6159 Y20.8868
G1 X12.6050 Y20.8981
G1 X12.5937 Y20.9090
G1 X12.5383 Y20.9592
G1 X12.5264 Y20.9694
G1 X12.5140 Y20.9791
G1 X12.4539 Y21.0237
G1 X12.4411 Y21.0327
G1 X12.4278 Y21.0411
G1 X12.3637 Y21.0795
G1 X12.3500 Y21.0873
G1 X12.3360 Y21.0944
G1 X12.2684 Y21.1263
G1 X12.2540 Y21.1327
G1 X12.2394 Y21.1383
G1 X12.1690 Y21.1635
G1 X12.1540 Y21.1685
G1 X12.1389 Y21.1726
G1 X12.0664 Y21.1908
G1 X12.0510 Y21.1943
G1 X12.0356 Y21.1969
G1 X11.9616 Y21.2079
G1 X11.9460 Y21.2098
G1 X11.9303 Y21.2110
G1 X11.8557 Y21.2147
G1 X11.8400 Y21.2150
G1 X11.8242 Y21.2147
G1 X11.7496 Y21.2110
G1 X11.7339 Y21.2098
G1 X11.7183 Y21.2079
G1 X11.6443 Y21.1969
G1 X11.6289 Y21.1943
G1 X11.6135 Y21.1908
G1 X11.5410 Y21.1726
G1 X11.5259 Y21.1685
G1 X11.5109 Y21.1635
G1 X11.4405 Y21.1383
G1 X11.4259 Y21.1327
G1 X11.4115 Y21.1263
G1 X11.3439 Y21.0944
G1 X11.3299 Y21.0873
G1 X11.3162 Y21.0795
G1 X11.2521 Y21.0411
G1 X11.2388 Y21.0327
G1 X11.2260 Y21.0237
G1 X11.1659 Y20.9791
G1 X11.1535 Y20.9694
G1 X11.1416 Y20.9592
G1 X11.0862 Y20.9090
G1 X11.0749 Y20.8981
G1 X11.0640 Y20.8868
G1 X11.0138 Y20.8314
G1 X11.0036 Y20.8195
G1 X10.9939 Y20.8071
G1 X10.9493 Y20.7470
G1 X10.9403 Y20.7342
G1 X10.9319 Y20.7209
G1 X10.8935 Y20.6568
G1 X10.8857 Y20.6431
G1 X10.8786 Y20.6291
G1 X10.8467 Y20.5615
G1 X10.8403 Y20.5471
G1 X10.8347 Y20.5325
G1 X10.8095 Y20.4621
G1 X10.8045 Y20.4471
G1 X10.8004 Y20.4320
G1 X10.7822 Y20.3595
G1 X10.7787 Y20.3441
G1 X10.7761 Y20.3287
G1 X10.7651 Y20.2547
G1 X10.7632 Y20.2391
G1 X10.7620 Y20.2234
G1 X10.7583 Y20.1488
G1 X10.7580 Y20.1330
G1 X10.7583 Y20.1173
G1 X10.7620 Y20.0427
G1 X10.7632 Y20.0270
G1 X10.7651 Y20.0114
G1 X10.7761 Y19.9374
G1 X10.7787 Y19.9220
G1 X10.7822 Y19.9066
G1 X10.8004 Y19.8341
G1 X10.8045 Y19.8190
G1 X10.8095 Y19.8040
G1 X10.8347 Y19.7336
G1 X10.8403 Y19.7190
G1 X10.8467 Y19.7046
G1 X10.8786 Y19.6370
G1 X10.8857 Y19.6230
G1 X10.8935 Y19.6093
G1 X10.9319 Y19.5452
G1 X10.9403 Y19.5319
G1 X10.9493 Y19.5191
G1 X10.9939 Y19.4590
G1 X11.0036 Y19.4466
G1 X11.0138 Y19.4347
G1 X11.0640 Y19.3793
G1 X11.0749 Y19.3680
G1 X11.0862 Y19.3571
G1 X11.1416 Y19.3069
G1 X11.1535 Y19.2967
G1 X11.1659 Y19.2870
G1 X11.2260 Y19.2424
G1 X11.2388 Y19.2334
G1 X11.2521 Y19.2250
G1 X11.3198 Y19.1845
G0 Z0.2000
G0 X9.6690 Y19.4104
F60
G1 Z0.0000 F60
F120
G1 X10.1929 Y18.8865
G1 X10.1929 Y6.5440
G1 X10.1941 Y6.5195
G1 X10.1977 Y6.4953
G1 X10.2036 Y6.4714
G1 X10.2110 Y6.4506
G1 X10.2224 Y6.4262
G1 X10.2350 Y6.4051
G1 X10.2496 Y6.3854
G1 X10.2661 Y6.3672
G1 X13.5681 Y3.0652
G1 X13.5863 Y3.0487
G1 X13.6070 Y3.0334
G1 X13.6271 Y3.0215
G1 X13.6470 Y3.0120
G1 X13.6723 Y3.0027
G1 X13.6962 Y2.9968
G1 X13.7180 Y2.9935
G1 X13.7450 Y2.9920
G1 X15.5230 Y2.9920
G1 X15.5475 Y2.9932
G1 X15.5717 Y2.9968
G1 X15.5956 Y3.0027
G1 X15.6164 Y3.0101
G1 X15.6408 Y3.0215
G1 X15.6619 Y3.0341
G1 X15.6816 Y3.0487
G1 X15.6998 Y3.0652
G1 X17.0844 Y4.4498
G1 X17.1082 Y4.4357
G1 X17.1925 Y4.3959
G1 X17.2792 Y4.3650
G1 X17.3684 Y4.3426
G1 X17.4643 Y4.3284
G1 X17.5550 Y4.3241
G1 X17.6493 Y4.3288
G1 X17.7403 Y4.3423
G1 X17.8284 Y4.3643
G1 X17.9207 Y4.3974
G1 X18.0028 Y4.4362
G1 X18.0827 Y4.4842
G1 X18.1576 Y4.5397
G1 X18.2258 Y4.6014
G1 X18.2908 Y4.6733
G1 X18.3448 Y4.7463
G1 X18.3928 Y4.8262
G1 X18.4335 Y4.9128
G1 X18.4640 Y4.9983
G1 X18.4867 Y5.0887
G1 X18.5006 Y5.1834
G1 X18.5049 Y5.2740
G1 X18.5004 Y5.3672
G1 X18.4862 Y5.4618
G1 X18.4640 Y5.5498
G1 X18.4335 Y5.6353
G1 X18.3928 Y5.7219
G1 X18.3448 Y5.8018
G1 X18.2893 Y5.8767
G1 X18.2267 Y5.9458
G1 X18.1576 Y6.0084
G1 X18.0827 Y6.0639
G1 X18.0028 Y6.1119
G1 X17.9185 Y6.1517
G1 X17.8307 Y6.1831
G1 X17.7403 Y6.2058
G1 X17.6481 Y6.2195
G1 X17.5550 Y6.2240
G1 X17.4618 Y6.2195
G1 X17.3696 Y6.2058
G1 X17.2792 Y6.1831
G1 X17.1892 Y6.1507
G1 X17.1071 Y6.1119
G1 X17.0252 Y6.0625
G1 X16.9523 Y6.0084
G1 X16.8850 Y5.9475
G1 X16.8222 Y5.8786
G1 X16.7651 Y5.8018
G1 X16.7171 Y5.7219
G1 X16.6773 Y5.6376
G1 X16.6462 Y5.5510
G1 X16.6232 Y5.4594
G1 X16.6095 Y5.3672
G1 X16.6050 Y5.2740
G1 X16.6097 Y5.1797
G1 X16.6232 Y5.0887
G1 X16.6462 Y4.9971
G1 X16.6777 Y4.9094
G1 X16.7166 Y4.8273
G1 X16.7307 Y4.8035
G1 X15.4194 Y3.4921
G1 X13.8485 Y3.4921
G1 X10.6931 Y6.6476
G1 X10.6930 Y18.9900
G1 X10.6917 Y19.0158
G1 X10.6882 Y19.0388
G1 X10.6829 Y19.0603
G1 X10.6740 Y19.0858
G1 X10.6635 Y19.1079
G1 X10.6522 Y19.1269
G1 X10.6347 Y19.1506
G1 X10.6198 Y19.1669
G1 X10.0226 Y19.7640
G1 X10.0501 Y19.8223
G1 X10.0770 Y19.8973
G1 X10.0963 Y19.9746
G1 X10.1077 Y20.0510
G1 X10.1119 Y20.1355
G1 X10.1080 Y20.2126
G1 X10.0968 Y20.2890
G1 X10.0762 Y20.3711
G1 X10.0501 Y20.4438
G1 X10.0161 Y20.5158
G1 X9.9737 Y20.5862
G1 X9.9276 Y20.6482
G1 X9.8750 Y20.7063
G1 X9.8131 Y20.7622
G1 X9.7511 Y20.8082
G1 X9.6827 Y20.8492
G1 X9.6107 Y20.8832
G1 X9.5380 Y20.9093
G1 X9.4559 Y20.9299
G1 X9.3795 Y20.9411
G1 X9.3000 Y20.9450
G1 X9.2204 Y20.9411
G1 X9.1440 Y20.9299
G1 X9.0619 Y20.9093
G1 X8.9892 Y20.8832
G1 X8.9172 Y20.8492
G1 X8.8488 Y20.8082
G1 X8.7848 Y20.7607
G1 X8.7258 Y20.7072
G1 X8.6723 Y20.6482
G1 X8.6248 Y20.5842
G1 X8.5838 Y20.5158
G1 X8.5498 Y20.4438
G1 X8.5229 Y20.3688
G1 X8.5036 Y20.2915
G1 X8.4919 Y20.2126
G1 X8.4880 Y20.1330
G1 X8.4919 Y20.0535
G1 X8.5036 Y19.9746
G1 X8.5229 Y19.8973
G1 X8.5498 Y19.8223
G1 X8.5838 Y19.7503
G1 X8.6248 Y19.6819
G1 X8.6723 Y19.6179
G1 X8.7258 Y19.5589
G1 X8.7848 Y19.5054
G1 X8.8488 Y19.4579
G1 X8.9172 Y19.4169
G1 X8.9892 Y19.3829
G1 X9.0642 Y19.3560
G1 X9.1415 Y19.3367
G1 X9.2204 Y19.3250
G1 X9.3000 Y19.3211
G1 X9.3795 Y19.3250
G1 X9.4584 Y19.3367
G1 X9.5357 Y19.3560
G1 X9.6107 Y19.3829
G1 X9.6690 Y19.4104
G0 Z0.2000
G0 X9.6501 Y19.3019
F60
G1 Z0.0000 F60
F120
G1 X10.1029 Y18.8492
G1 X10.1029 Y6.5440
G1 X10.1045 Y6.5107
G1 X10.1094 Y6.4777
G1 X10.1175 Y6.4453
G1 X10.1263 Y6.4203
G1 X10.1301 Y6.4107
G1 X10.1430 Y6.3837
G1 X10.1602 Y6.3551
G1 X10.1800 Y6.3283
G1 X10.2025 Y6.3036
G1 X13.5045 Y3.0016
G1 X13.5292 Y2.9791
G1 X13.5504 Y2.9632
G1 X13.5589 Y2.9574
G1 X13.5846 Y2.9421
G1 X13.6085 Y2.9306
G1 X13.6180 Y2.9266
G1 X13.6462 Y2.9166
G1 X13.6752 Y2.9092
G1 X13.6854 Y2.9073
G1 X13.7116 Y2.9036
G1 X13.7415 Y2.9020
G1 X15.5230 Y2.9020
G1 X15.5563 Y2.9036
G1 X15.5893 Y2.9085
G1 X15.6217 Y2.9166
G1 X15.6467 Y2.9254
G1 X15.6563 Y2.9292
G1 X15.6802 Y2.9405
G1 X15.6893 Y2.9455
G1 X15.7090 Y2.9574
G1 X15.7175 Y2.9632
G1 X15.7387 Y2.9791
G1 X15.7610 Y2.9992
G1 X17.1013 Y4.3394
G1 X17.1507 Y4.3160
G1 X17.1601 Y4.3119
G1 X17.2465 Y4.2810
G1 X17.2564 Y4.2779
G1 X17.3521 Y4.2540
G1 X17.4496 Y4.2394
G1 X17.4599 Y4.2386
G1 X17.5481 Y4.2342
G1 X17.5618 Y4.2342
G1 X17.6569 Y4.2391
G1 X17.7545 Y4.2534
G1 X17.7645 Y4.2555
G1 X17.8502 Y4.2770
G1 X17.8634 Y4.2810
G1 X17.9529 Y4.3132
G1 X18.0452 Y4.3569
G1 X18.1269 Y4.4056
G1 X18.1384 Y4.4133
G1 X18.2147 Y4.4701
G1 X18.2879 Y4.5363
G1 X18.2951 Y4.5436
G1 X18.3544 Y4.6091
G1 X18.3631 Y4.6197
G1 X18.4197 Y4.6963
G1 X18.4721 Y4.7838
G1 X18.5130 Y4.8698
G1 X18.5183 Y4.8825
G1 X18.5502 Y4.9722
G1 X18.5750 Y5.0712
G1 X18.5891 Y5.1653
G1 X18.5904 Y5.1790
G1 X18.5949 Y5.2740
G1 X18.5899 Y5.3760
G1 X18.5761 Y5.4702
G1 X18.5735 Y5.4836
G1 X18.5502 Y5.5759
G1 X18.5183 Y5.6656
G1 X18.5130 Y5.6783
G1 X18.4721 Y5.7643
G1 X18.4197 Y5.8518
G1 X18.3589 Y5.9338
G1 X18.2903 Y6.0094
G1 X18.2147 Y6.0780
G1 X18.1327 Y6.1388
G1 X18.0452 Y6.1912
G1 X17.9529 Y6.2349
G1 X17.8568 Y6.2693
G1 X17.7578 Y6.2941
G1 X17.6569 Y6.3090
G1 X17.5550 Y6.3140
G1 X17.4530 Y6.3090
G1 X17.3521 Y6.2941
G1 X17.2531 Y6.2693
G1 X17.1634 Y6.2374
G1 X17.1538 Y6.2335
G1 X17.0647 Y6.1912
G1 X16.9772 Y6.1388
G1 X16.8952 Y6.0780
G1 X16.8196 Y6.0094
G1 X16.7510 Y5.9338
G1 X16.6902 Y5.8518
G1 X16.6378 Y5.7643
G1 X16.5969 Y5.6783
G1 X16.5928 Y5.6689
G1 X16.5597 Y5.5759
G1 X16.5349 Y5.4769
G1 X16.5200 Y5.3760
G1 X16.5151 Y5.2809
G1 X16.5150 Y5.2706
G1 X16.5200 Y5.1721
G1 X16.5338 Y5.0779
G1 X16.5356 Y5.0678
G1 X16.5579 Y4.9788
G1 X16.5608 Y4.9689
G1 X16.5941 Y4.8761
G1 X16.6203 Y4.8204
G1 X15.3821 Y3.5821
G1 X13.8858 Y3.5821
G1 X10.7830 Y6.6849
G1 X10.7830 Y18.9900
G1 X10.7819 Y19.0165
G1 X10.7810 Y19.0268
G1 X10.7765 Y19.0564
G1 X10.7702 Y19.0822
G1 X10.7674 Y19.0921
G1 X10.7572 Y19.1202
G1 X10.7429 Y19.1504
G1 X10.7294 Y19.1732
G1 X10.7218 Y19.1846
G1 X10.7080 Y19.2031
G1 X10.7036 Y19.2084
G1 X10.6834 Y19.2305
G1 X10.1311 Y19.7829
G1 X10.1358 Y19.7943
G1 X10.1610 Y19.8647
G1 X10.1649 Y19.8778
G1 X10.1846 Y19.9571
G1 X10.1976 Y20.0446
G1 X10.2019 Y20.1330
G1 X10.1981 Y20.2146
G1 X10.1968 Y20.2283
G1 X10.1846 Y20.3090
G1 X10.1631 Y20.3949
G1 X10.1358 Y20.4718
G1 X10.1305 Y20.4845
G1 X10.0954 Y20.5582
G1 X10.0536 Y20.6284
G1 X10.0460 Y20.6398
G1 X9.9972 Y20.7053
G1 X9.9402 Y20.7684
G1 X9.9328 Y20.7756
G1 X9.8774 Y20.8258
G1 X9.8668 Y20.8345
G1 X9.8011 Y20.8830
G1 X9.7251 Y20.9285
G1 X9.6514 Y20.9636
G1 X9.6387 Y20.9689
G1 X9.5618 Y20.9962
G1 X9.4759 Y21.0177
G1 X9.3884 Y21.0307
G1 X9.3068 Y21.0349
G1 X9.2931 Y21.0349
G1 X9.2115 Y21.0307
G1 X9.1240 Y21.0177
G1 X9.0447 Y20.9980
G1 X9.0316 Y20.9941
G1 X8.9548 Y20.9664
G1 X8.8748 Y20.9285
G1 X8.7988 Y20.8830
G1 X8.7277 Y20.8303
G1 X8.6621 Y20.7709
G1 X8.6027 Y20.7053
G1 X8.5500 Y20.6342
G1 X8.5045 Y20.5582
G1 X8.4666 Y20.4782
G1 X8.4368 Y20.3949
G1 X8.4153 Y20.3090
G1 X8.4023 Y20.2215
G1 X8.3980 Y20.1330
G1 X8.4023 Y20.0446
G1 X8.4153 Y19.9571
G1 X8.4368 Y19.8712
G1 X8.4666 Y19.7879
G1 X8.5045 Y19.7079
G1 X8.5500 Y19.6319
G1 X8.6027 Y19.5608
G1 X8.6621 Y19.4952
G1 X8.7277 Y19.4358
G1 X8.7988 Y19.3831
G1 X8.8748 Y19.3376
G1 X8.9548 Y19.2997
G1 X9.0381 Y19.2699
G1 X9.1240 Y19.2484
G1 X9.2115 Y19.2354
G1 X9.3000 Y19.2311
G1 X9.3884 Y19.2354
G1 X9.4759 Y19.2484
G1 X9.5618 Y19.2699
G1 X9.6387 Y19.2972
G1 X9.6501 Y19.3019
G0 Z0.2000
G0 X9.6272 Y19.1975
F60
G1 Z0.0000 F60
F120
G1 X10.0129 Y18.8119
G1 X10.0129 Y6.5440
G1 X10.0141 Y6.5132
G1 X10.0149 Y6.5019
G1 X10.0201 Y6.4657
G1 X10.0223 Y6.4546
G1 X10.0298 Y6.4246
G1 X10.0331 Y6.4138
G1 X10.0415 Y6.3900
G1 X10.0478 Y6.3743
G1 X10.0610 Y6.3463
G1 X10.0664 Y6.3364
G1 X10.0823 Y6.3098
G1 X10.0918 Y6.2959
G1 X10.1105 Y6.2712
G1 X10.1310 Y6.2481
G1 X10.1388 Y6.2399
G1 X13.4408 Y2.9379
G1 X13.4490 Y2.9301
G1 X13.4721 Y2.9096
G1 X13.4968 Y2.8909
G1 X13.5107 Y2.8814
G1 X13.5422 Y2.8627
G1 X13.5700 Y2.8493
G1 X13.5856 Y2.8426
G1 X13.6201 Y2.8305
G1 X13.6555 Y2.8214
G1 X13.6722 Y2.8183
G1 X13.7028 Y2.8140
G1 X13.7393 Y2.8120
G1 X15.5230 Y2.8120
G1 X15.5595 Y2.8135
G1 X15.5763 Y2.8154
G1 X15.6069 Y2.8202
G1 X15.6369 Y2.8275
G1 X15.6478 Y2.8305
G1 X15.6770 Y2.8406
G1 X15.6875 Y2.8447
G1 X15.7156 Y2.8577
G1 X15.7257 Y2.8627
G1 X15.7355 Y2.8683
G1 X15.7572 Y2.8814
G1 X15.7666 Y2.8876
G1 X15.7958 Y2.9096
G1 X15.8189 Y2.9301
G1 X15.8271 Y2.9379
G1 X17.1202 Y4.2311
G1 X17.1331 Y4.2260
G1 X17.2162 Y4.1962
G1 X17.2269 Y4.1927
G1 X17.2378 Y4.1897
G1 X17.3345 Y4.1658
G1 X17.4330 Y4.1509
G1 X17.4442 Y4.1495
G1 X17.4554 Y4.1487
G1 X17.5550 Y4.1441
G1 X17.6545 Y4.1487
G1 X17.6657 Y4.1495
G1 X17.6769 Y4.1509
G1 X17.7754 Y4.1658
G1 X17.8721 Y4.1897
G1 X17.8830 Y4.1927
G1 X17.9768 Y4.2260
G1 X17.9874 Y4.2301
G1 X17.9977 Y4.2346
G1 X18.0876 Y4.2775
G1 X18.1732 Y4.3284
G1 X18.1827 Y4.3345
G1 X18.1920 Y4.3410
G1 X18.2718 Y4.4005
G1 X18.2804 Y4.4079
G1 X18.3499 Y4.4711
G1 X18.3618 Y4.4832
G1 X18.4211 Y4.5486
G1 X18.4285 Y4.5572
G1 X18.4354 Y4.5661
G1 X18.4945 Y4.6463
G1 X18.5006 Y4.6558
G1 X18.5515 Y4.7414
G1 X18.5944 Y4.8313
G1 X18.5989 Y4.8416
G1 X18.6030 Y4.8522
G1 X18.6363 Y4.9460
G1 X18.6608 Y5.0426
G1 X18.6632 Y5.0536
G1 X18.6781 Y5.1521
G1 X18.6795 Y5.1633
G1 X18.6803 Y5.1745
G1 X18.6849 Y5.2740
G1 X18.6803 Y5.3736
G1 X18.6795 Y5.3848
G1 X18.6652 Y5.4834
G1 X18.6632 Y5.4945
G1 X18.6608 Y5.5055
G1 X18.6363 Y5.6021
G1 X18.6328 Y5.6128
G1 X18.6010 Y5.7012
G1 X18.5944 Y5.7168
G1 X18.5515 Y5.8067
G1 X18.5006 Y5.8923
G1 X18.4945 Y5.9018
G1 X18.4880 Y5.9111
G1 X18.4285 Y5.9909
G1 X18.3618 Y6.0649
G1 X18.3540 Y6.0731
G1 X18.3458 Y6.0809
G1 X18.2718 Y6.1476
G1 X18.1920 Y6.2071
G1 X18.1827 Y6.2136
G1 X18.1732 Y6.2197
G1 X18.0876 Y6.2706
G1 X17.9977 Y6.3135
G1 X17.9874 Y6.3180
G1 X17.9768 Y6.3221
G1 X17.8830 Y6.3554
G1 X17.7864 Y6.3799
G1 X17.7754 Y6.3823
G1 X17.7643 Y6.3843
G1 X17.6657 Y6.3986
G1 X17.5662 Y6.4038
G1 X17.5550 Y6.4040
G1 X17.5437 Y6.4038
G1 X17.4442 Y6.3986
G1 X17.3456 Y6.3843
G1 X17.3345 Y6.3823
G1 X17.3235 Y6.3799
G1 X17.2269 Y6.3554
G1 X17.1331 Y6.3221
G1 X17.1173 Y6.3158
G1 X17.0324 Y6.2757
G1 X17.0223 Y6.2706
G1 X16.9367 Y6.2197
G1 X16.9272 Y6.2136
G1 X16.9179 Y6.2071
G1 X16.8381 Y6.1476
G1 X16.7641 Y6.0809
G1 X16.7559 Y6.0731
G1 X16.7481 Y6.0649
G1 X16.6814 Y5.9909
G1 X16.6745 Y5.9820
G1 X16.6154 Y5.9018
G1 X16.5639 Y5.8166
G1 X16.5584 Y5.8067
G1 X16.5533 Y5.7966
G1 X16.5110 Y5.7065
G1 X16.4771 Y5.6128
G1 X16.4736 Y5.6021
G1 X16.4706 Y5.5912
G1 X16.4467 Y5.4945
G1 X16.4447 Y5.4834
G1 X16.4304 Y5.3848
G1 X16.4252 Y5.2853
G1 X16.4250 Y5.2740
G1 X16.4296 Y5.1745
G1 X16.4304 Y5.1633
G1 X16.4318 Y5.1521
G1 X16.4467 Y5.0536
G1 X16.4491 Y5.0426
G1 X16.4736 Y4.9460
G1 X16.5069 Y4.8522
G1 X16.5120 Y4.8393
G1 X15.3448 Y3.6721
G1 X13.9231 Y3.6721
G1 X10.8730 Y6.7222
G1 X10.8730 Y18.9900
G1 X10.8718 Y19.0209
G1 X10.8710 Y19.0322
G1 X10.8658 Y19.0684
G1 X10.8623 Y19.0850
G1 X10.8561 Y19.1095
G1 X10.8528 Y19.1203
G1 X10.8403 Y19.1546
G1 X10.8273 Y19.1827
G1 X10.8195 Y19.1977
G1 X10.8006 Y19.2290
G1 X10.7824 Y19.2540
G1 X10.7718 Y19.2672
G1 X10.7471 Y19.2942
G1 X10.2355 Y19.8058
G1 X10.2475 Y19.8397
G1 X10.2508 Y19.8505
G1 X10.2704 Y19.9285
G1 X10.2739 Y19.9451
G1 X10.2858 Y20.0246
G1 X10.2872 Y20.0358
G1 X10.2880 Y20.0471
G1 X10.2919 Y20.1274
G1 X10.2917 Y20.1443
G1 X10.2880 Y20.2190
G1 X10.2872 Y20.2303
G1 X10.2858 Y20.2415
G1 X10.2729 Y20.3266
G1 X10.2704 Y20.3376
G1 X10.2508 Y20.4156
G1 X10.2457 Y20.4317
G1 X10.2205 Y20.5021
G1 X10.2164 Y20.5127
G1 X10.2119 Y20.5230
G1 X10.1748 Y20.6007
G1 X10.1693 Y20.6105
G1 X10.1248 Y20.6842
G1 X10.0737 Y20.7535
G1 X10.0668 Y20.7624
G1 X10.0594 Y20.7709
G1 X10.0014 Y20.8345
G1 X9.9932 Y20.8423
G1 X9.9336 Y20.8962
G1 X9.9204 Y20.9068
G1 X9.8511 Y20.9579
G1 X9.7774 Y21.0024
G1 X9.7676 Y21.0079
G1 X9.6899 Y21.0450
G1 X9.6796 Y21.0495
G1 X9.5986 Y21.0788
G1 X9.5879 Y21.0823
G1 X9.5770 Y21.0853
G1 X9.4935 Y21.1060
G1 X9.4084 Y21.1189
G1 X9.3972 Y21.1203
G1 X9.3859 Y21.1211
G1 X9.3112 Y21.1248
G1 X9.3000 Y21.1250
G1 X9.2887 Y21.1248
G1 X9.2027 Y21.1203
G1 X9.1175 Y21.1079
G1 X9.1064 Y21.1060
G1 X9.0954 Y21.1035
G1 X9.0120 Y21.0823
G1 X9.0013 Y21.0788
G1 X8.9203 Y21.0495
G1 X8.9100 Y21.0450
G1 X8.8323 Y21.0079
G1 X8.7584 Y20.9639
G1 X8.7488 Y20.9579
G1 X8.7396 Y20.9514
G1 X8.6706 Y20.8999
G1 X8.6067 Y20.8423
G1 X8.5946 Y20.8305
G1 X8.5405 Y20.7709
G1 X8.5296 Y20.7580
G1 X8.4783 Y20.6888
G1 X8.4721 Y20.6794
G1 X8.4600 Y20.6596
G1 X8.4600 Y21.0979
G1 X9.9861 Y22.6240
G1 X14.3288 Y22.6240
G1 X15.2199 Y21.7329
G1 X15.2199 Y20.6596
G1 X15.2078 Y20.6794
G1 X15.2016 Y20.6888
G1 X15.1537 Y20.7535
G1 X15.1431 Y20.7667
G1 X15.0892 Y20.8263
G1 X15.0814 Y20.8345
G1 X15.0732 Y20.8423
G1 X15.0136 Y20.8962
G1 X15.0004 Y20.9068
G1 X14.9403 Y20.9514
G1 X14.9311 Y20.9579
G1 X14.9215 Y20.9639
G1 X14.8476 Y21.0079
G1 X14.8375 Y21.0130
G1 X14.7648 Y21.0473
G1 X14.7490 Y21.0536
G1 X14.6786 Y21.0788
G1 X14.6679 Y21.0823
G1 X14.6570 Y21.0853
G1 X14.5735 Y21.1060
G1 X14.4884 Y21.1189
G1 X14.4772 Y21.1203
G1 X14.3912 Y21.1248
G1 X14.3800 Y21.1250
G1 X14.3687 Y21.1248
G1 X14.2827 Y21.1203
G1 X14.1975 Y21.1079
G1 X14.1864 Y21.1060
G1 X14.1754 Y21.1035
G1 X14.0920 Y21.0823
G1 X14.0109 Y21.0536
G1 X14.0003 Y21.0495
G1 X13.9900 Y21.0450
G1 X13.9123 Y21.0079
G1 X13.9025 Y21.0024
G1 X13.8288 Y20.9579
G1 X13.7595 Y20.9068
G1 X13.7506 Y20.8999
G1 X13.7421 Y20.8925
G1 X13.6785 Y20.8345
G1 X13.6707 Y20.8263
G1 X13.6131 Y20.7624
G1 X13.5616 Y20.6934
G1 X13.5551 Y20.6842
G1 X13.5491 Y20.6746
G1 X13.5051 Y20.6007
G1 X13.4680 Y20.5230
G1 X13.4635 Y20.5127
G1 X13.4342 Y20.4317
G1 X13.4307 Y20.4210
G1 X13.4277 Y20.4101
G1 X13.4095 Y20.3376
G1 X13.4070 Y20.3266
G1 X13.4051 Y20.3155
G1 X13.3927 Y20.2303
G1 X13.3882 Y20.1443
G1 X13.3880 Y20.1330
G1 X13.3882 Y20.1218
G1 X13.3927 Y20.0358
G1 X13.4051 Y19.9506
G1 X13.4070 Y19.9395
G1 X13.4095 Y19.9285
G1 X13.4277 Y19.8560
G1 X13.4307 Y19.8451
G1 X13.4342 Y19.8344
G1 X13.4635 Y19.7534
G1 X13.4680 Y19.7431
G1 X13.5025 Y19.6704
G1 X13.5106 Y19.6556
G1 X13.5491 Y19.5915
G1 X13.5551 Y19.5819
G1 X13.5616 Y19.5727
G1 X13.6131 Y19.5037
G1 X13.6707 Y19.4398
G1 X13.6825 Y19.4277
G1 X13.7421 Y19.3736
G1 X13.7506 Y19.3662
G1 X13.7595 Y19.3593
G1 X13.8242 Y19.3114
G1 X13.8384 Y19.3022
G1 X13.9074 Y19.2609
G1 X13.9173 Y19.2556
G1 X13.9498 Y19.2401
G1 X13.9498 Y13.9101
G1 X13.9511 Y13.8792
G1 X13.9519 Y13.8679
G1 X13.9562 Y13.8373
G1 X13.9581 Y13.8262
G1 X13.9653 Y13.7961
G1 X13.9683 Y13.7852
G1 X13.9785 Y13.7560
G1 X13.9848 Y13.7403
G1 X14.0006 Y13.7073
G1 X14.0062 Y13.6975
G1 X14.0223 Y13.6711
G1 X14.0288 Y13.6619
G1 X14.0474 Y13.6372
G1 X14.0680 Y13.6141
G1 X14.0758 Y13.6059
G1 X21.5920 Y6.0898
G1 X21.5869 Y6.0769
G1 X21.5571 Y5.9938
G1 X21.5536 Y5.9831
G1 X21.5506 Y5.9722
G1 X21.5267 Y5.8755
G1 X21.5247 Y5.8644
G1 X21.5104 Y5.7658
G1 X21.5052 Y5.6663
G1 X21.5050 Y5.6550
G1 X21.5096 Y5.5555
G1 X21.5104 Y5.5443
G1 X21.5118 Y5.5331
G1 X21.5267 Y5.4346
G1 X21.5291 Y5.4236
G1 X21.5536 Y5.3270
G1 X21.5869 Y5.2332
G1 X21.5910 Y5.2226
G1 X21.5955 Y5.2123
G1 X21.6384 Y5.1224
G1 X21.6893 Y5.0368
G1 X21.6954 Y5.0273
G1 X21.7019 Y5.0180
G1 X21.7614 Y4.9382
G1 X21.7688 Y4.9296
G1 X21.8320 Y4.8601
G1 X21.8441 Y4.8482
G1 X21.9181 Y4.7815
G1 X21.9270 Y4.7746
G1 X22.0072 Y4.7155
G1 X22.0924 Y4.6640
G1 X22.1023 Y4.6585
G1 X22.1922 Y4.6156
G1 X22.2025 Y4.6111
G1 X22.2131 Y4.6070
G1 X22.3069 Y4.5737
G1 X22.3178 Y4.5707
G1 X22.4145 Y4.5468
G1 X22.4256 Y4.5448
G1 X22.5242 Y4.5305
G1 X22.6237 Y4.5253
G1 X22.6406 Y4.5251
G1 X22.7345 Y4.5297
G1 X22.7457 Y4.5305
G1 X22.8443 Y4.5448
G1 X22.8554 Y4.5468
G1 X22.8664 Y4.5492
G1 X22.9630 Y4.5737
G1 X22.9737 Y4.5772
G1 X23.0674 Y4.6111
G1 X23.1575 Y4.6534
G1 X23.1676 Y4.6585
G1 X23.1775 Y4.6640
G1 X23.2627 Y4.7155
G1 X23.3429 Y4.7746
G1 X23.3518 Y4.7815
G1 X23.4258 Y4.8482
G1 X23.4340 Y4.8560
G1 X23.4418 Y4.8642
G1 X23.5085 Y4.9382
G1 X23.5680 Y5.0180
G1 X23.5745 Y5.0273
G1 X23.5806 Y5.0368
G1 X23.6315 Y5.1224
G1 X23.6744 Y5.2123
G1 X23.6789 Y5.2226
G1 X23.6830 Y5.2332
G1 X23.7128 Y5.3163
G1 X23.7163 Y5.3270
G1 X23.7193 Y5.3379
G1 X23.7432 Y5.4346
G1 X23.7581 Y5.5331
G1 X23.7595 Y5.5443
G1 X23.7603 Y5.5555
G1 X23.7649 Y5.6550
G1 X23.7603 Y5.7546
G1 X23.7595 Y5.7658
G1 X23.7581 Y5.7770
G1 X23.7432 Y5.8755
G1 X23.7193 Y5.9722
G1 X23.7163 Y5.9831
G1 X23.7128 Y5.9938
G1 X23.6789 Y6.0875
G1 X23.6366 Y6.1776
G1 X23.6315 Y6.1877
G1 X23.6260 Y6.1976
G1 X23.5745 Y6.2828
G1 X23.5154 Y6.3630
G1 X23.5085 Y6.3719
G1 X23.5011 Y6.3805
G1 X23.4340 Y6.4541
G1 X23.3604 Y6.5212
G1 X23.3518 Y6.5286
G1 X23.3429 Y6.5355
G1 X23.2720 Y6.5881
G1 X23.2627 Y6.5946
G1 X23.2532 Y6.6007
G1 X23.1676 Y6.6516
G1 X23.1575 Y6.6567
G1 X23.0674 Y6.6990
G1 X22.9737 Y6.7329
G1 X22.9630 Y6.7364
G1 X22.8664 Y6.7609
G1 X22.8554 Y6.7633
G1 X22.8443 Y6.7653
G1 X22.7569 Y6.7782
G1 X22.7457 Y6.7796
G1 X22.7345 Y6.7804
G1 X22.6350 Y6.7850
G1 X22.6237 Y6.7848
G1 X22.5242 Y6.7796
G1 X22.4256 Y6.7653
G1 X22.4145 Y6.7633
G1 X22.3178 Y6.7394
G1 X22.3069 Y6.7364
G1 X22.2962 Y6.7329
G1 X22.2131 Y6.7031
G1 X22.2002 Y6.6980
G1 X14.8100 Y14.0882
G1 X14.8100 Y19.2401
G1 X14.8426 Y19.2556
G1 X14.8525 Y19.2609
G1 X14.9263 Y19.3052
G1 X14.9403 Y19.3147
G1 X15.0004 Y19.3593
G1 X15.0093 Y19.3662
G1 X15.0178 Y19.3736
G1 X15.0814 Y19.4316
G1 X15.0892 Y19.4398
G1 X15.1431 Y19.4994
G1 X15.1537 Y19.5126
G1 X15.2016 Y19.5773
G1 X15.2078 Y19.5867
G1 X15.2199 Y19.6065
G1 X15.2199 Y18.7360
G1 X15.2214 Y18.6995
G1 X15.2233 Y18.6827
G1 X15.2281 Y18.6521
G1 X15.2368 Y18.6166
G1 X15.2419 Y18.6005
G1 X15.2526 Y18.5715
G1 X15.2656 Y18.5434
G1 X15.2734 Y18.5284
G1 X15.2923 Y18.4971
G1 X15.3105 Y18.4721
G1 X15.3175 Y18.4632
G1 X15.3380 Y18.4401
G1 X15.3458 Y18.4319
G1 X16.9968 Y16.7809
G1 X17.0050 Y16.7731
G1 X17.0281 Y16.7526
G1 X17.0528 Y16.7339
G1 X17.0620 Y16.7274
G1 X17.0884 Y16.7113
G1 X17.0982 Y16.7057
G1 X17.1260 Y16.6923
G1 X17.1416 Y16.6856
G1 X17.1761 Y16.6735
G1 X17.1870 Y16.6705
G1 X17.2170 Y16.6632
G1 X17.2476 Y16.6584
G1 X17.2588 Y16.6570
G1 X17.2897 Y16.6552
G1 X17.3010 Y16.6550
G1 X21.4920 Y16.6550
G1 X21.5032 Y16.6552
G1 X21.5341 Y16.6570
G1 X21.5647 Y16.6613
G1 X21.5814 Y16.6644
G1 X21.6168 Y16.6735
G1 X21.6460 Y16.6836
G1 X21.6617 Y16.6899
G1 X21.6947 Y16.7057
G1 X21.7262 Y16.7244
G1 X21.7401 Y16.7339
G1 X21.7648 Y16.7526
G1 X21.7920 Y16.7770
G1 X24.2127 Y19.1975
G1 X24.2466 Y19.1855
G1 X24.2574 Y19.1822
G1 X24.3354 Y19.1626
G1 X24.3520 Y19.1591
G1 X24.4315 Y19.1472
G1 X24.4427 Y19.1458
G1 X24.4540 Y19.1450
G1 X24.5343 Y19.1411
G1 X24.5512 Y19.1413
G1 X24.6259 Y19.1450
G1 X24.6372 Y19.1458
G1 X24.6484 Y19.1472
G1 X24.7335 Y19.1601
G1 X24.7445 Y19.1626
G1 X24.8225 Y19.1822
G1 X24.8386 Y19.1873
G1 X24.9090 Y19.2125
G1 X24.9196 Y19.2166
G1 X24.9299 Y19.2211
G1 X25.0076 Y19.2582
G1 X25.0815 Y19.3022
G1 X25.0911 Y19.3082
G1 X25.1604 Y19.3593
G1 X25.1693 Y19.3662
G1 X25.1778 Y19.3736
G1 X25.2414 Y19.4316
G1 X25.2492 Y19.4398
G1 X25.3031 Y19.4994
G1 X25.3137 Y19.5126
G1 X25.3648 Y19.5819
G1 X25.4093 Y19.6556
G1 X25.4148 Y19.6654
G1 X25.4519 Y19.7431
G1 X25.4564 Y19.7534
G1 X25.4857 Y19.8344
G1 X25.4892 Y19.8451
G1 X25.4922 Y19.8560
G1 X25.5129 Y19.9395
G1 X25.5258 Y20.0246
G1 X25.5272 Y20.0358
G1 X25.5280 Y20.0471
G1 X25.5319 Y20.1330
G1 X25.5280 Y20.2190
G1 X25.5272 Y20.2303
G1 X25.5148 Y20.3155
G1 X25.5129 Y20.3266
G1 X25.5104 Y20.3376
G1 X25.4892 Y20.4210
G1 X25.4605 Y20.5021
G1 X25.4564 Y20.5127
G1 X25.4199 Y20.5906
G1 X25.4148 Y20.6007
G1 X25.4093 Y20.6105
G1 X25.3648 Y20.6842
G1 X25.3137 Y20.7535
G1 X25.3068 Y20.7624
G1 X25.2994 Y20.7709
G1 X25.2414 Y20.8345
G1 X25.2332 Y20.8423
G1 X25.1736 Y20.8962
G1 X25.1604 Y20.9068
G1 X25.0911 Y20.9579
G1 X25.0174 Y21.0024
G1 X25.0076 Y21.0079
G1 X24.9975 Y21.0130
G1 X24.9299 Y21.0450
G1 X24.9196 Y21.0495
G1 X24.9090 Y21.0536
G1 X24.8279 Y21.0823
G1 X24.7445 Y21.1035
G1 X24.7335 Y21.1060
G1 X24.6484 Y21.1189
G1 X24.6372 Y21.1203
G1 X24.5512 Y21.1248
G1 X24.5400 Y21.1250
G1 X24.5287 Y21.1248
G1 X24.4427 Y21.1203
G1 X24.3575 Y21.1079
G1 X24.3464 Y21.1060
G1 X24.3354 Y21.1035
G1 X24.2520 Y21.0823
G1 X24.1709 Y21.0536
G1 X24.1603 Y21.0495
G1 X24.1500 Y21.0450
G1 X24.0824 Y21.0130
G1 X24.0723 Y21.0079
G1 X24.0625 Y21.0024
G1 X23.9888 Y20.9579
G1 X23.9195 Y20.9068
G1 X23.9063 Y20.8962
G1 X23.8467 Y20.8423
G1 X23.8385 Y20.8345
G1 X23.7805 Y20.7709
G1 X23.7731 Y20.7624
G1 X23.7662 Y20.7535
G1 X23.7151 Y20.6842
G1 X23.6706 Y20.6105
G1 X23.6651 Y20.6007
G1 X23.6280 Y20.5230
G1 X23.6235 Y20.5127
G1 X23.6194 Y20.5021
G1 X23.5942 Y20.4317
G1 X23.5891 Y20.4156
G1 X23.5695 Y20.3376
G1 X23.5670 Y20.3266
G1 X23.5541 Y20.2415
G1 X23.5527 Y20.2303
G1 X23.5519 Y20.2190
G1 X23.5482 Y20.1443
G1 X23.5480 Y20.1274
G1 X23.5519 Y20.0471
G1 X23.5527 Y20.0358
G1 X23.5541 Y20.0246
G1 X23.5660 Y19.9451
G1 X23.5695 Y19.9285
G1 X23.5891 Y19.8505
G1 X23.5924 Y19.8397
G1 X23.6044 Y19.8058
G1 X21.3138 Y17.5151
G1 X17.4791 Y17.5151
G1 X16.0800 Y18.9142
G1 X16.0800 Y19.6065
G1 X16.0921 Y19.5867
G1 X16.0983 Y19.5773
G1 X16.1496 Y19.5081
G1 X16.1605 Y19.4952
G1 X16.2146 Y19.4356
G1 X16.2267 Y19.4238
G1 X16.2906 Y19.3662
G1 X16.2995 Y19.3593
G1 X16.3642 Y19.3114
G1 X16.3784 Y19.3022
G1 X16.4523 Y19.2582
G1 X16.4624 Y19.2531
G1 X16.5403 Y19.2166
G1 X16.6213 Y19.1873
G1 X16.6320 Y19.1838
G1 X16.6429 Y19.1808
G1 X16.7209 Y19.1613
G1 X16.7375 Y19.1582
G1 X16.8227 Y19.1458
G1 X16.8340 Y19.1450
G1 X16.9200 Y19.1411
G1 X17.0059 Y19.1450
G1 X17.0172 Y19.1458
G1 X17.1024 Y19.1582
G1 X17.1135 Y19.1601
G1 X17.1245 Y19.1626
G1 X17.2079 Y19.1838
G1 X17.2186 Y19.1873
G1 X17.2996 Y19.2166
G1 X17.3775 Y19.2531
G1 X17.3876 Y19.2582
G1 X17.3974 Y19.2637
G1 X17.4711 Y19.3082
G1 X17.5404 Y19.3593
G1 X17.5493 Y19.3662
G1 X17.6132 Y19.4238
G1 X17.6214 Y19.4316
G1 X17.6292 Y19.4398
G1 X17.6794 Y19.4952
G1 X17.6868 Y19.5037
G1 X17.6937 Y19.5126
G1 X17.7448 Y19.5819
G1 X17.7893 Y19.6556
G1 X17.7948 Y19.6654
G1 X17.7999 Y19.6755
G1 X17.8364 Y19.7534
G1 X17.8405 Y19.7640
G1 X17.8675 Y19.8397
G1 X17.8722 Y19.8560
G1 X17.8904 Y19.9285
G1 X17.8929 Y19.9395
G1 X17.8948 Y19.9506
G1 X17.9072 Y20.0358
G1 X17.9117 Y20.1218
G1 X17.9119 Y20.1387
G1 X17.9080 Y20.2190
G1 X17.9072 Y20.2303
G1 X17.9058 Y20.2415
G1 X17.8939 Y20.3210
G1 X17.8904 Y20.3376
G1 X17.8708 Y20.4156
G1 X17.8675 Y20.4264
G1 X17.8555 Y20.4603
G1 X18.8761 Y21.4810
G1 X25.3778 Y21.4810
G1 X26.7769 Y20.0819
G1 X26.7769 Y7.8652
G1 X25.6097 Y6.6980
G1 X25.5968 Y6.7031
G1 X25.5137 Y6.7329
G1 X25.5030 Y6.7364
G1 X25.4921 Y6.7394
G1 X25.3954 Y6.7633
G1 X25.2969 Y6.7782
G1 X25.2857 Y6.7796
G1 X25.2745 Y6.7804
G1 X25.1750 Y6.7850
G1 X25.0754 Y6.7804
G1 X25.0642 Y6.7796
G1 X25.0530 Y6.7782
G1 X24.9545 Y6.7633
G1 X24.8578 Y6.7394
G1 X24.8469 Y6.7364
G1 X24.8362 Y6.7329
G1 X24.7425 Y6.6990
G1 X24.6524 Y6.6567
G1 X24.6423 Y6.6516
G1 X24.6324 Y6.6461
G1 X24.5472 Y6.5946
G1 X24.5379 Y6.5881
G1 X24.4625 Y6.5321
G1 X24.4495 Y6.5212
G1 X24.3759 Y6.4541
G1 X24.3681 Y6.4459
G1 X24.3014 Y6.3719
G1 X24.2945 Y6.3630
G1 X24.2354 Y6.2828
G1 X24.2293 Y6.2733
G1 X24.1784 Y6.1877
G1 X24.1355 Y6.0978
G1 X24.1310 Y6.0875
G1 X24.1269 Y6.0769
G1 X24.0936 Y5.9831
G1 X24.0691 Y5.8865
G1 X24.0667 Y5.8755
G1 X24.0518 Y5.7770
G1 X24.0504 Y5.7658
G1 X24.0496 Y5.7546
G1 X24.0450 Y5.6550
G1 X24.0496 Y5.5555
G1 X24.0504 Y5.5443
G1 X24.0518 Y5.5331
G1 X24.0667 Y5.4346
G1 X24.0906 Y5.3379
G1 X24.0936 Y5.3270
G1 X24.0971 Y5.3163
G1 X24.1310 Y5.2226
G1 X24.1733 Y5.1325
G1 X24.1784 Y5.1224
G1 X24.2293 Y5.0368
G1 X24.2354 Y5.0273
G1 X24.2419 Y5.0180
G1 X24.2945 Y4.9471
G1 X24.3014 Y4.9382
G1 X24.3088 Y4.9296
G1 X24.3759 Y4.8560
G1 X24.4495 Y4.7889
G1 X24.4581 Y4.7815
G1 X24.4670 Y4.7746
G1 X24.5472 Y4.7155
G1 X24.5567 Y4.7094
G1 X24.6423 Y4.6585
G1 X24.7322 Y4.6156
G1 X24.7425 Y4.6111
G1 X24.8362 Y4.5772
G1 X24.8469 Y4.5737
G1 X24.8578 Y4.5707
G1 X24.9435 Y4.5492
G1 X24.9545 Y4.5468
G1 X24.9656 Y4.5448
G1 X25.0642 Y4.5305
G1 X25.1637 Y4.5253
G1 X25.1750 Y4.5251
G1 X25.1862 Y4.5253
G1 X25.2857 Y4.5305
G1 X25.3843 Y4.5448
G1 X25.3954 Y4.5468
G1 X25.4064 Y4.5492
G1 X25.5030 Y4.5737
G1 X25.5968 Y4.6070
G1 X25.6074 Y4.6111
G1 X25.6177 Y4.6156
G1 X25.7076 Y4.6585
G1 X25.7175 Y4.6640
G1 X25.8027 Y4.7155
G1 X25.8829 Y4.7746
G1 X25.8918 Y4.7815
G1 X25.9658 Y4.8482
G1 X25.9740 Y4.8560
G1 X25.9818 Y4.8642
G1 X26.0485 Y4.9382
G1 X26.1080 Y5.0180
G1 X26.1145 Y5.0273
G1 X26.1206 Y5.0368
G1 X26.1715 Y5.1224
G1 X26.2144 Y5.2123
G1 X26.2189 Y5.2226
G1 X26.2230 Y5.2332
G1 X26.2563 Y5.3270
G1 X26.2808 Y5.4236
G1 X26.2832 Y5.4346
G1 X26.2852 Y5.4457
G1 X26.2995 Y5.5443
G1 X26.3047 Y5.6438
G1 X26.3049 Y5.6550
G1 X26.3047 Y5.6663
G1 X26.2995 Y5.7658
G1 X26.2852 Y5.8644
G1 X26.2832 Y5.8755
G1 X26.2808 Y5.8865
G1 X26.2563 Y5.9831
G1 X26.2230 Y6.0769
G1 X26.2179 Y6.0898
G1 X27.5111 Y7.3829
G1 X27.5189 Y7.3911
G1 X27.5394 Y7.4142
G1 X27.5614 Y7.4434
G1 X27.5676 Y7.4528
G1 X27.5807 Y7.4745
G1 X27.5863 Y7.4843
G1 X27.5913 Y7.4944
G1 X27.6043 Y7.5225
G1 X27.6150 Y7.5515
G1 X27.6185 Y7.5622
G1 X27.6215 Y7.5731
G1 X27.6288 Y7.6031
G1 X27.6336 Y7.6337
G1 X27.6355 Y7.6505
G1 X27.6370 Y7.6870
G1 X27.6370 Y20.2600
G1 X27.6368 Y20.2713
G1 X27.6350 Y20.3022
G1 X27.6307 Y20.3328
G1 X27.6288 Y20.3440
G1 X27.6215 Y20.3740
G1 X27.6185 Y20.3849
G1 X27.6064 Y20.4194
G1 X27.6021 Y20.4298
G1 X27.5889 Y20.4578
G1 X27.5835 Y20.4677
G1 X27.5676 Y20.4943
G1 X27.5614 Y20.5037
G1 X27.5429 Y20.5285
G1 X27.5358 Y20.5372
G1 X27.5150 Y20.5601
G1 X25.8560 Y22.2191
G1 X25.8288 Y22.2435
G1 X25.8041 Y22.2622
G1 X25.7949 Y22.2687
G1 X25.7854 Y22.2747
G1 X25.7587 Y22.2904
G1 X25.7309 Y22.3038
G1 X25.7205 Y22.3084
G1 X25.7100 Y22.3125
G1 X25.6808 Y22.3226
G1 X25.6699 Y22.3256
G1 X25.6399 Y22.3329
G1 X25.6093 Y22.3377
G1 X25.5981 Y22.3391
G1 X25.5616 Y22.3411
G1 X18.6980 Y22.3411
G1 X18.6867 Y22.3409
G1 X18.6558 Y22.3391
G1 X18.6196 Y22.3339
G1 X18.6030 Y22.3304
G1 X18.5785 Y22.3242
G1 X18.5677 Y22.3209
G1 X18.5334 Y22.3084
G1 X18.5002 Y22.2930
G1 X18.4854 Y22.2848
G1 X18.4637 Y22.2717
G1 X18.4543 Y22.2655
G1 X18.4251 Y22.2435
G1 X18.4020 Y22.2230
G1 X18.3938 Y22.2152
G1 X17.2472 Y21.0686
G1 X17.2133 Y21.0806
G1 X17.2025 Y21.0839
G1 X17.1245 Y21.1035
G1 X17.1079 Y21.1070
G1 X17.0284 Y21.1189
G1 X17.0172 Y21.1203
G1 X17.0059 Y21.1211
G1 X16.9256 Y21.1250
G1 X16.9087 Y21.1248
G1 X16.8227 Y21.1203
G1 X16.7375 Y21.1079
G1 X16.7264 Y21.1060
G1 X16.7154 Y21.1035
G1 X16.6429 Y21.0853
G1 X16.6320 Y21.0823
G1 X16.6213 Y21.0788
G1 X16.5403 Y21.0495
G1 X16.4624 Y21.0130
G1 X16.4523 Y21.0079
G1 X16.4425 Y21.0024
G1 X16.3688 Y20.9579
G1 X16.3596 Y20.9514
G1 X16.2950 Y20.9034
G1 X16.2821 Y20.8925
G1 X16.2185 Y20.8345
G1 X16.2107 Y20.8263
G1 X16.1568 Y20.7667
G1 X16.1462 Y20.7535
G1 X16.0983 Y20.6888
G1 X16.0921 Y20.6794
G1 X16.0800 Y20.6596
G1 X16.0800 Y21.7329
G1 X17.9109 Y23.5637
G1 X67.5320 Y23.5637
G1 X67.5685 Y23.5653
G1 X67.5854 Y23.5672
G1 X67.6159 Y23.5720
G1 X67.6460 Y23.5792
G1 X67.6568 Y23.5823
G1 X67.6676 Y23.5858
G1 X67.6966 Y23.5965
G1 X67.7297 Y23.6119
G1 X67.7397 Y23.6172
G1 X67.7614 Y23.6302
G1 X67.7709 Y23.6362
G1 X67.7802 Y23.6427
G1 X67.8048 Y23.6614
G1 X67.8279 Y23.6819
G1 X67.8361 Y23.6897
G1 X73.9525 Y29.8061
G1 X73.9622 Y29.7963
G1 X73.9705 Y29.7887
G1 X73.9792 Y29.7815
G1 X73.9883 Y29.7748
G1 X73.9977 Y29.7685
G1 X74.0074 Y29.7627
G1 X74.0173 Y29.7574
G1 X74.0275 Y29.7526
G1 X74.0380 Y29.7483
G1 X74.0486 Y29.7445
G1 X74.0594 Y29.7412
G1 X74.0759 Y29.7373
G1 X74.0870 Y29.7353
G1 X74.0982 Y29.7340
G1 X74.1095 Y29.7331
G1 X74.1208 Y29.7329
G1 X75.8028 Y29.7329
G1 X75.8141 Y29.7335
G1 X75.8253 Y29.7346
G1 X75.8365 Y29.7362
G1 X75.8475 Y29.7384
G1 X75.8639 Y29.7428
G1 X75.8746 Y29.7463
G1 X75.8852 Y29.7504
G1 X75.8955 Y29.7549
G1 X75.9056 Y29.7600
G1 X75.9202 Y29.7685
G1 X75.9296 Y29.7748
G1 X75.9387 Y29.7815
G1 X75.9474 Y29.7887
G1 X75.9557 Y29.7963
G1 X75.9637 Y29.8043
G1 X75.9713 Y29.8126
G1 X75.9785 Y29.8213
G1 X75.9852 Y29.8304
G1 X75.9915 Y29.8398
G1 X75.9973 Y29.8495
G1 X76.0026 Y29.8594
G1 X76.0074 Y29.8696
G1 X76.0117 Y29.8801
G1 X76.0155 Y29.8907
G1 X76.0188 Y29.9015
G1 X76.0216 Y29.9125
G1 X76.0238 Y29.9235
G1 X76.0254 Y29.9347
G1 X76.0265 Y29.9459
G1 X76.0271 Y29.9572
G1 X76.0271 Y31.6392
G1 X76.0269 Y31.6505
G1 X76.0260 Y31.6618
G1 X76.0247 Y31.6730
G1 X76.0227 Y31.6841
G1 X76.0188 Y31.7006
G1 X76.0137 Y31.7167
G1 X76.0096 Y31.7273
G1 X76.0051 Y31.7376
G1 X75.9973 Y31.7526
G1 X75.9915 Y31.7623
G1 X75.9852 Y31.7717
G1 X75.9749 Y31.7852
G1 X75.9637 Y31.7978
G1 X75.9516 Y31.8097
G1 X75.9431 Y31.8170
G1 X75.9342 Y31.8240
G1 X75.9202 Y31.8336
G1 X75.9056 Y31.8421
G1 X75.8904 Y31.8495
G1 X75.8746 Y31.8558
G1 X75.8639 Y31.8593
G1 X75.8530 Y31.8624
G1 X75.8365 Y31.8659
G1 X75.8197 Y31.8681
G1 X75.8084 Y31.8690
G1 X75.7971 Y31.8692
G1 X74.1208 Y31.8692
G1 X74.1038 Y31.8686
G1 X74.0926 Y31.8675
G1 X74.0814 Y31.8659
G1 X74.0704 Y31.8637
G1 X74.0594 Y31.8609
G1 X74.0433 Y31.8558
G1 X74.0275 Y31.8495
G1 X74.0123 Y31.8421
G1 X73.9977 Y31.8336
G1 X73.9837 Y31.8240
G1 X73.9748 Y31.8170
G1 X73.9622 Y31.8058
G1 X73.9503 Y31.7937
G1 X73.9394 Y31.7808
G1 X73.9295 Y31.7670
G1 X73.9235 Y31.7575
G1 X73.9153 Y31.7427
G1 X73.9083 Y31.7273
G1 X73.9024 Y31.7114
G1 X73.8991 Y31.7006
G1 X73.8963 Y31.6896
G1 X73.8932 Y31.6730
G1 X73.8919 Y31.6618
G1 X73.8908 Y31.6449
G1 X73.8908 Y31.2312
G1 X73.7132 Y31.2311
G1 X73.6829 Y31.2296
G1 X73.6717 Y31.2285
G1 X73.6411 Y31.2239
G1 X73.6300 Y31.2217
G1 X73.5946 Y31.2126
G1 X73.5654 Y31.2025
G1 X73.5496 Y31.1962
G1 X73.5217 Y31.1830
G1 X73.5068 Y31.1748
G1 X73.4805 Y31.1587
G1 X73.4510 Y31.1370
G1 X73.4366 Y31.1248
G1 X73.4058 Y31.2098
G1 X73.3661 Y31.2945
G1 X73.3610 Y31.3046
G1 X73.3555 Y31.3144
G1 X73.3132 Y31.3850
G1 X73.3071 Y31.3945
G1 X73.3006 Y31.4037
G1 X73.2447 Y31.4787
G1 X73.1821 Y31.5482
G1 X73.1743 Y31.5564
G1 X73.1661 Y31.5642
G1 X73.0966 Y31.6268
G1 X73.0216 Y31.6827
G1 X73.0124 Y31.6892
G1 X73.0029 Y31.6953
G1 X72.9323 Y31.7376
G1 X72.9225 Y31.7431
G1 X72.9124 Y31.7482
G1 X72.8277 Y31.7879
G1 X72.7398 Y31.8197
G1 X72.7290 Y31.8233
G1 X72.7182 Y31.8263
G1 X72.6273 Y31.8487
G1 X72.6162 Y31.8507
G1 X72.5237 Y31.8641
G1 X72.4302 Y31.8690
G1 X72.4190 Y31.8692
G1 X72.3255 Y31.8649
G1 X72.3142 Y31.8641
G1 X72.3030 Y31.8627
G1 X72.2217 Y31.8507
G1 X72.2106 Y31.8487
G1 X72.1995 Y31.8463
G1 X72.1089 Y31.8233
G1 X72.0207 Y31.7920
G1 X72.0102 Y31.7879
G1 X71.9998 Y31.7834
G1 X71.9154 Y31.7431
G1 X71.9056 Y31.7376
G1 X71.8302 Y31.6923
G1 X71.8163 Y31.6827
G1 X71.7413 Y31.6268
G1 X71.6718 Y31.5642
G1 X71.6636 Y31.5564
G1 X71.6558 Y31.5482
G1 X71.6006 Y31.4873
G1 X71.5932 Y31.4787
G1 X71.5863 Y31.4698
G1 X71.5308 Y31.3945
G1 X71.4824 Y31.3144
G1 X71.4769 Y31.3046
G1 X71.4718 Y31.2945
G1 X71.4321 Y31.2098
G1 X71.4280 Y31.1993
G1 X71.3985 Y31.1165
G1 X71.3937 Y31.1003
G1 X71.3713 Y31.0094
G1 X71.3573 Y30.9170
G1 X71.3559 Y30.9058
G1 X71.3551 Y30.8945
G1 X71.3510 Y30.8123
G1 X71.3508 Y30.7954
G1 X71.3551 Y30.7076
G1 X71.3559 Y30.6963
G1 X71.3693 Y30.6038
G1 X71.3713 Y30.5927
G1 X71.3937 Y30.5018
G1 X71.3967 Y30.4910
G1 X71.4239 Y30.4143
G1 X67.0338 Y26.0241
G1 X9.6810 Y26.0241
G1 X9.6501 Y26.0229
G1 X9.6388 Y26.0221
G1 X9.6082 Y26.0178
G1 X9.5970 Y26.0159
G1 X9.5670 Y26.0086
G1 X9.5561 Y26.0056
G1 X9.5269 Y25.9955
G1 X9.5164 Y25.9914
G1 X9.5060 Y25.9868
G1 X9.4782 Y25.9734
G1 X9.4515 Y25.9577
G1 X9.4420 Y25.9517
G1 X9.4328 Y25.9452
G1 X9.4081 Y25.9265
G1 X9.3850 Y25.9060
G1 X9.3768 Y25.8982
G1 X6.4558 Y22.9772
G1 X6.4480 Y22.9690
G1 X6.4275 Y22.9459
G1 X6.4088 Y22.9212
G1 X6.4023 Y22.9120
G1 X6.3834 Y22.8807
G1 X6.3756 Y22.8657
G1 X6.3626 Y22.8376
G1 X6.3501 Y22.8033
G1 X6.3468 Y22.7925
G1 X6.3406 Y22.7680
G1 X6.3371 Y22.7514
G1 X6.3319 Y22.7152
G1 X6.3301 Y22.6843
G1 X6.3299 Y22.6730
G1 X6.3299 Y21.0260
G1 X6.2973 Y21.0105
G1 X6.2874 Y21.0052
G1 X6.2184 Y20.9639
G1 X6.2042 Y20.9547
G1 X6.1395 Y20.9068
G1 X6.1306 Y20.8999
G1 X6.0667 Y20.8423
G1 X6.0546 Y20.8305
G1 X6.0005 Y20.7709
G1 X5.9931 Y20.7624
G1 X5.9862 Y20.7535
G1 X5.9351 Y20.6842
G1 X5.8906 Y20.6105
G1 X5.8851 Y20.6007
G1 X5.8800 Y20.5906
G1 X5.8435 Y20.5127
G1 X5.8394 Y20.5021
G1 X5.8107 Y20.4210
G1 X5.7895 Y20.3376
G1 X5.7870 Y20.3266
G1 X5.7741 Y20.2415
G1 X5.7727 Y20.2303
G1 X5.7719 Y20.2190
G1 X5.7680 Y20.1387
G1 X5.7682 Y20.1218
G1 X5.7727 Y20.0358
G1 X5.7741 Y20.0246
G1 X5.7860 Y19.9451
G1 X5.7895 Y19.9285
G1 X5.8091 Y19.8505
G1 X5.8124 Y19.8397
G1 X5.8244 Y19.8058
G1 X4.5508 Y18.5322
G1 X4.5430 Y18.5240
G1 X4.5225 Y18.5009
G1 X4.5038 Y18.4762
G1 X4.4973 Y18.4670
G1 X4.4812 Y18.4406
G1 X4.4756 Y18.4308
G1 X4.4622 Y18.4030
G1 X4.4576 Y18.3926
G1 X4.4535 Y18.3821
G1 X4.4451 Y18.3583
G1 X4.4418 Y18.3475
G1 X4.4331 Y18.3120
G1 X4.4275 Y18.2758
G1 X4.4261 Y18.2589
G1 X4.4249 Y18.2280
G1 X4.4249 Y6.2900
G1 X4.4264 Y6.2535
G1 X4.4283 Y6.2367
G1 X4.4331 Y6.2061
G1 X4.4356 Y6.1951
G1 X4.4434 Y6.1652
G1 X4.4535 Y6.1360
G1 X4.4576 Y6.1255
G1 X4.4706 Y6.0974
G1 X4.4756 Y6.0873
G1 X4.4812 Y6.0775
G1 X4.4943 Y6.0558
G1 X4.5005 Y6.0464
G1 X4.5225 Y6.0172
G1 X4.5430 Y5.9941
G1 X4.5508 Y5.9859
G1 X5.7170 Y4.8198
G1 X5.7119 Y4.8069
G1 X5.6786 Y4.7131
G1 X5.6541 Y4.6165
G1 X5.6517 Y4.6055
G1 X5.6497 Y4.5944
G1 X5.6354 Y4.4958
G1 X5.6302 Y4.3963
G1 X5.6300 Y4.3850
G1 X5.6302 Y4.3738
G1 X5.6354 Y4.2743
G1 X5.6497 Y4.1757
G1 X5.6517 Y4.1646
G1 X5.6541 Y4.1536
G1 X5.6786 Y4.0570
G1 X5.7119 Y3.9632
G1 X5.7160 Y3.9526
G1 X5.7205 Y3.9423
G1 X5.7634 Y3.8524
G1 X5.8143 Y3.7668
G1 X5.8236 Y3.7526
G1 X5.8795 Y3.6771
G1 X5.8864 Y3.6682
G1 X5.8938 Y3.6596
G1 X5.9609 Y3.5860
G1 X5.9691 Y3.5782
G1 X6.0431 Y3.5115
G1 X6.1229 Y3.4520
G1 X6.1322 Y3.4455
G1 X6.1417 Y3.4394
G1 X6.2273 Y3.3885
G1 X6.3172 Y3.3456
G1 X6.3275 Y3.3411
G1 X6.3381 Y3.3370
G1 X6.4319 Y3.3037
G1 X6.5285 Y3.2792
G1 X6.5395 Y3.2768
G1 X6.6380 Y3.2619
G1 X6.6492 Y3.2605
G1 X6.7487 Y3.2553
G1 X6.7600 Y3.2551
G1 X6.7712 Y3.2553
G1 X6.8595 Y3.2597
G1 X6.8707 Y3.2605
G1 X6.8819 Y3.2619
G1 X6.9804 Y3.2768
G1 X7.0771 Y3.3007
G1 X7.0880 Y3.3037
G1 X7.0987 Y3.3072
G1 X7.1924 Y3.3411
G1 X7.2825 Y3.3834
G1 X7.2926 Y3.3885
G1 X7.3025 Y3.3940
G1 X7.3877 Y3.4455
G1 X7.4679 Y3.5046
G1 X7.4768 Y3.5115
G1 X7.4854 Y3.5189
G1 X7.5590 Y3.5860
G1 X7.6261 Y3.6596
G1 X7.6335 Y3.6682
G1 X7.6404 Y3.6771
G1 X7.6930 Y3.7480
G1 X7.6995 Y3.7573
G1 X7.7056 Y3.7668
G1 X7.7565 Y3.8524
G1 X7.7616 Y3.8625
G1 X7.8039 Y3.9526
G1 X7.8378 Y4.0463
G1 X7.8413 Y4.0570
G1 X7.8658 Y4.1536
G1 X7.8682 Y4.1646
G1 X7.8702 Y4.1757
G1 X7.8845 Y4.2743
G1 X7.8897 Y4.3738
G1 X7.8899 Y4.3850
G1 X7.8897 Y4.3963
G1 X7.8850 Y4.4902
G1 X7.8831 Y4.5070
G1 X7.8682 Y4.6055
G1 X7.8443 Y4.7022
G1 X7.8413 Y4.7131
G1 X7.8378 Y4.7238
G1 X7.8039 Y4.8175
G1 X7.7994 Y4.8278
G1 X7.7565 Y4.9177
G1 X7.7056 Y5.0033
G1 X7.6995 Y5.0128
G1 X7.6404 Y5.0930
G1 X7.6335 Y5.1019
G1 X7.6261 Y5.1105
G1 X7.5590 Y5.1841
G1 X7.4854 Y5.2512
G1 X7.4768 Y5.2586
G1 X7.4679 Y5.2655
G1 X7.3877 Y5.3246
G1 X7.3025 Y5.3761
G1 X7.2926 Y5.3816
G1 X7.2825 Y5.3867
G1 X7.1924 Y5.4290
G1 X7.0987 Y5.4629
G1 X7.0880 Y5.4664
G1 X7.0771 Y5.4694
G1 X6.9804 Y5.4933
G1 X6.8819 Y5.5082
G1 X6.8707 Y5.5096
G1 X6.8595 Y5.5104
G1 X6.7600 Y5.5150
G1 X6.6604 Y5.5104
G1 X6.6492 Y5.5096
G1 X6.6380 Y5.5082
G1 X6.5395 Y5.4933
G1 X6.4428 Y5.4694
G1 X6.4319 Y5.4664
G1 X6.4212 Y5.4629
G1 X6.3381 Y5.4331
G1 X6.3252 Y5.4280
G1 X5.2850 Y6.4682
G1 X5.2850 Y18.0499
G1 X6.4327 Y19.1975
G1 X6.4666 Y19.1855
G1 X6.4774 Y19.1822
G1 X6.5554 Y19.1626
G1 X6.5720 Y19.1591
G1 X6.6515 Y19.1472
G1 X6.6627 Y19.1458
G1 X6.6740 Y19.1450
G1 X6.7543 Y19.1411
G1 X6.7712 Y19.1413
G1 X6.8572 Y19.1458
G1 X6.9424 Y19.1582
G1 X6.9535 Y19.1601
G1 X6.9645 Y19.1626
G1 X7.0370 Y19.1808
G1 X7.0479 Y19.1838
G1 X7.0586 Y19.1873
G1 X7.1396 Y19.2166
G1 X7.1499 Y19.2211
G1 X7.2276 Y19.2582
G1 X7.3015 Y19.3022
G1 X7.3111 Y19.3082
G1 X7.3203 Y19.3147
G1 X7.3849 Y19.3627
G1 X7.3978 Y19.3736
G1 X7.4614 Y19.4316
G1 X7.4692 Y19.4398
G1 X7.5231 Y19.4994
G1 X7.5337 Y19.5126
G1 X7.5816 Y19.5773
G1 X7.5878 Y19.5867
G1 X7.5999 Y19.6065
G1 X7.5999 Y8.3732
G1 X7.1947 Y7.9680
G1 X7.1818 Y7.9731
G1 X7.0880 Y8.0064
G1 X6.9914 Y8.0309
G1 X6.9804 Y8.0333
G1 X6.9693 Y8.0353
G1 X6.8707 Y8.0496
G1 X6.7712 Y8.0548
G1 X6.7600 Y8.0550
G1 X6.7487 Y8.0548
G1 X6.6492 Y8.0496
G1 X6.5506 Y8.0353
G1 X6.5395 Y8.0333
G1 X6.5285 Y8.0309
G1 X6.4319 Y8.0064
G1 X6.3381 Y7.9731
G1 X6.3275 Y7.9690
G1 X6.3172 Y7.9645
G1 X6.2273 Y7.9216
G1 X6.1417 Y7.8707
G1 X6.1275 Y7.8614
G1 X6.0520 Y7.8055
G1 X6.0431 Y7.7986
G1 X5.9691 Y7.7319
G1 X5.9609 Y7.7241
G1 X5.9531 Y7.7159
G1 X5.8864 Y7.6419
G1 X5.8269 Y7.5621
G1 X5.8204 Y7.5528
G1 X5.8143 Y7.5433
G1 X5.7689 Y7.4676
G1 X5.7634 Y7.4577
G1 X5.7583 Y7.4476
G1 X5.7160 Y7.3575
G1 X5.6821 Y7.2638
G1 X5.6786 Y7.2531
G1 X5.6756 Y7.2422
G1 X5.6517 Y7.1455
G1 X5.6368 Y7.0470
G1 X5.6354 Y7.0358
G1 X5.6346 Y7.0246
G1 X5.6300 Y6.9250
G1 X5.6346 Y6.8255
G1 X5.6354 Y6.8143
G1 X5.6368 Y6.8031
G1 X5.6517 Y6.7046
G1 X5.6756 Y6.6079
G1 X5.6786 Y6.5970
G1 X5.6821 Y6.5863
G1 X5.7119 Y6.5032
G1 X5.7160 Y6.4926
G1 X5.7205 Y6.4823
G1 X5.7634 Y6.3924
G1 X5.7689 Y6.3825
G1 X5.8204 Y6.2973
G1 X5.8795 Y6.2171
G1 X5.8864 Y6.2082
G1 X5.8938 Y6.1996
G1 X5.9609 Y6.1260
G1 X5.9691 Y6.1182
G1 X6.0431 Y6.0515
G1 X6.1229 Y5.9920
G1 X6.1322 Y5.9855
G1 X6.1417 Y5.9794
G1 X6.2273 Y5.9285
G1 X6.3172 Y5.8856
G1 X6.3275 Y5.8811
G1 X6.3381 Y5.8770
G1 X6.4212 Y5.8472
G1 X6.4319 Y5.8437
G1 X6.4428 Y5.8407
G1 X6.5395 Y5.8168
G1 X6.6380 Y5.8019
G1 X6.6492 Y5.8005
G1 X6.7487 Y5.7953
G1 X6.7600 Y5.7951
G1 X6.8595 Y5.7997
G1 X6.8763 Y5.8011
G1 X6.9693 Y5.8148
G1 X6.9804 Y5.8168
G1 X7.0771 Y5.8407
G1 X7.0880 Y5.8437
G1 X7.0987 Y5.8472
G1 X7.1818 Y5.8770
G1 X7.1924 Y5.8811
G1 X7.2027 Y5.8856
G1 X7.2926 Y5.9285
G1 X7.3782 Y5.9794
G1 X7.3877 Y5.9855
G1 X7.3970 Y5.9920
G1 X7.4768 Y6.0515
G1 X7.5508 Y6.1182
G1 X7.5590 Y6.1260
G1 X7.6261 Y6.1996
G1 X7.6335 Y6.2082
G1 X7.6930 Y6.2880
G1 X7.6995 Y6.2973
G1 X7.7510 Y6.3825
G1 X7.7565 Y6.3924
G1 X7.7616 Y6.4025
G1 X7.8039 Y6.4926
G1 X7.8378 Y6.5863
G1 X7.8413 Y6.5970
G1 X7.8443 Y6.6079
G1 X7.8682 Y6.7046
G1 X7.8831 Y6.8031
G1 X7.8845 Y6.8143
G1 X7.8897 Y6.9138
G1 X7.8899 Y6.9250
G1 X7.8897 Y6.9363
G1 X7.8845 Y7.0358
G1 X7.8702 Y7.1344
G1 X7.8682 Y7.1455
G1 X7.8658 Y7.1565
G1 X7.8413 Y7.2531
G1 X7.8080 Y7.3469
G1 X7.8029 Y7.3598
G1 X8.3341 Y7.8909
G1 X8.3550 Y7.9136
G1 X8.3624 Y7.9222
G1 X8.3811 Y7.9469
G1 X8.3876 Y7.9561
G1 X8.4037 Y7.9825
G1 X8.4119 Y7.9973
G1 X8.4273 Y8.0305
G1 X8.4398 Y8.0648
G1 X8.4445 Y8.0811
G1 X8.4518 Y8.1111
G1 X8.4574 Y8.1473
G1 X8.4588 Y8.1642
G1 X8.4600 Y8.1950
G1 X8.4600 Y19.6065
G1 X8.4721 Y19.5867
G1 X8.4783 Y19.5773
G1 X8.5262 Y19.5126
G1 X8.5368 Y19.4994
G1 X8.5907 Y19.4398
G1 X8.5985 Y19.4316
G1 X8.6621 Y19.3736
G1 X8.6750 Y19.3627
G1 X8.7396 Y19.3147
G1 X8.7488 Y19.3082
G1 X8.8225 Y19.2637
G1 X8.8323 Y19.2582
G1 X8.8424 Y19.2531
G1 X8.9203 Y19.2166
G1 X9.0013 Y19.1873
G1 X9.0120 Y19.1838
G1 X9.0229 Y19.1808
G1 X9.0954 Y19.1626
G1 X9.1064 Y19.1601
G1 X9.1175 Y19.1582
G1 X9.2027 Y19.1458
G1 X9.2887 Y19.1413
G1 X9.3056 Y19.1411
G1 X9.3859 Y19.1450
G1 X9.3972 Y19.1458
G1 X9.4084 Y19.1472
G1 X9.4879 Y19.1591
G1 X9.5045 Y19.1626
G1 X9.5825 Y19.1822
G1 X9.5933 Y19.1855
G1 X9.6272 Y19.1975
G0 Z0.2000
G0 X9.6029 Y19.0945
F60
G1 Z0.0000 F60
F120
G1 X9.9229 Y18.7746
G1 X9.9229 Y6.5440
G1 X9.9242 Y6.5087
G1 X9.9254 Y6.4931
G1 X9.9273 Y6.4775
G1 X9.9314 Y6.4503
G1 X9.9345 Y6.4349
G1 X9.9431 Y6.4006
G1 X9.9476 Y6.3856
G1 X9.9568 Y6.3597
G1 X9.9655 Y6.3378
G1 X9.9806 Y6.3058
G1 X9.9880 Y6.2920
G1 X10.0062 Y6.2617
G1 X10.0195 Y6.2423
G1 X10.0409 Y6.2141
G1 X10.0644 Y6.1877
G1 X10.0752 Y6.1763
G1 X13.3772 Y2.8743
G1 X13.3886 Y2.8635
G1 X13.4150 Y2.8400
G1 X13.4432 Y2.8186
G1 X13.4626 Y2.8053
G1 X13.4861 Y2.7911
G1 X13.4998 Y2.7834
G1 X13.5316 Y2.7679
G1 X13.5532 Y2.7586
G1 X13.5791 Y2.7493
G1 X13.5940 Y2.7443
G1 X13.6282 Y2.7354
G1 X13.6512 Y2.7305
G1 X13.6784 Y2.7264
G1 X13.6940 Y2.7245
G1 X13.7292 Y2.7223
G1 X13.7450 Y2.7220
G1 X15.5230 Y2.7220
G1 X15.5387 Y2.7223
G1 X15.5661 Y2.7238
G1 X15.5895 Y2.7264
G1 X15.6244 Y2.7319
G1 X15.6397 Y2.7354
G1 X15.6664 Y2.7422
G1 X15.6814 Y2.7467
G1 X15.7073 Y2.7559
G1 X15.7292 Y2.7646
G1 X15.7541 Y2.7763
G1 X15.7681 Y2.7834
G1 X15.7818 Y2.7911
G1 X15.8053 Y2.8053
G1 X15.8184 Y2.8140
G1 X15.8405 Y2.8303
G1 X15.8529 Y2.8400
G1 X15.8648 Y2.8503
G1 X15.8907 Y2.8743
G1 X17.1432 Y4.1268
G1 X17.1933 Y4.1090
G1 X17.2083 Y4.1044
G1 X17.3093 Y4.0791
G1 X17.3324 Y4.0748
G1 X17.4198 Y4.0618
G1 X17.4432 Y4.0593
G1 X17.5392 Y4.0544
G1 X17.5550 Y4.0541
G1 X17.5707 Y4.0544
G1 X17.6589 Y4.0588
G1 X17.6745 Y4.0599
G1 X17.6901 Y4.0618
G1 X17.7775 Y4.0748
G1 X17.8006 Y4.0791
G1 X17.8940 Y4.1024
G1 X17.9091 Y4.1066
G1 X17.9240 Y4.1115
G1 X18.0072 Y4.1413
G1 X18.0218 Y4.1469
G1 X18.0362 Y4.1533
G1 X18.1160 Y4.1910
G1 X18.1301 Y4.1981
G1 X18.1437 Y4.2058
G1 X18.2195 Y4.2513
G1 X18.2327 Y4.2597
G1 X18.2456 Y4.2687
G1 X18.3165 Y4.3213
G1 X18.3289 Y4.3310
G1 X18.3408 Y4.3412
G1 X18.4120 Y4.4059
G1 X18.4285 Y4.4228
G1 X18.4878 Y4.4882
G1 X18.4980 Y4.5001
G1 X18.5077 Y4.5125
G1 X18.5603 Y4.5834
G1 X18.5693 Y4.5963
G1 X18.5777 Y4.6095
G1 X18.6232 Y4.6853
G1 X18.6309 Y4.6989
G1 X18.6380 Y4.7130
G1 X18.6757 Y4.7928
G1 X18.6821 Y4.8072
G1 X18.6877 Y4.8218
G1 X18.7175 Y4.9050
G1 X18.7224 Y4.9199
G1 X18.7266 Y4.9350
G1 X18.7481 Y5.0207
G1 X18.7515 Y5.0360
G1 X18.7542 Y5.0515
G1 X18.7672 Y5.1389
G1 X18.7691 Y5.1545
G1 X18.7702 Y5.1701
G1 X18.7746 Y5.2583
G1 X18.7749 Y5.2740
G1 X18.7746 Y5.2898
G1 X18.7702 Y5.3780
G1 X18.7691 Y5.3936
G1 X18.7672 Y5.4092
